!!!COM:	L. van Beethoven
!!!OTL:	Op. 59 No. 3 Movement 1 - String Quartet No. 9
**kern	**dynam
*I"Viola	*
*clefC3	*
*k[]	*
*C:	*
*M3/4	*
=1	=1
!LO:TX:a:B:t=Andante con moto	!
!LO:TX:a:B:t=Introduzione	!
[2.c	f
=2	=2
4c]	>
4r	]
4r	.
=3	=3
[2.c	.
=4	=4
4c]	pp
4r	.
4r	.
=5	=5
!LO:TX:b:i:t=sempre	!
[2.c	.
=6	=6
2c]	pp
[4d	.
=7	=7
(4d]	.
4g	.
4f#X)	.
=8	=8
[2.fn	f
=9	=9
4f]	>
4r	p
4r	.
=10	=10
!LO:TX:b:i:t=sempre	!
[2.f	.
=11	=11
2.f]	pp
=12	=12
[2.e-X	.
=13	=13
(2e-]	.
4d)	.
=14	=14
!!linebreak:original
[2.G	.
=15	=15
2.G_	.
=16	=16
2.G_	.
=17	=17
2.G]	.
=18	=18
(2A-X	.
4G)	.
=19	=19
[2.F	.
=20	=20
2.F_	.
=21	=21
2.F]	.
=22	=22
[2.F	.
=23	=23
2.F_	.
=24	=24
4F]	.
4r	.
4r	.
=25	=25
2.r	.
=26	=26
[2.A-X	.
=27	=27
2.A-_	.
=28	=28
2.A-]	.
=29	=29
2G	.
=30||	=30||
!!linebreak:original
*M4/4	*
*met(c)	*
!LO:TX:a:B:t=Allegro vivace	!
8G'	p
8r	.
=31!|:	=31!|:
2.G	.
4r	.
=32	=32
1r	.
=33	=33
1r	.
=34	=34
1r	.
=35	=35
4r	.
(4B	.
8c)	.
8r	.
8A'	f
8r	.
=36	=36
2.A	.
4r	.
=37	=37
1r	.
=38	=38
1r	.
=39	=39
1r	.
=40	=40
1r	.
=41	=41
2r	.
4r	.
8F'	pp
8r	.
=42	=42
!LO:TX:b:i:t=cresc.	!
1G	.
=43	=43
1F 1G	f
=44	=44
[2E [2G	.
8EL] 8G]	.
(16EL	.
16FJJ)	.
8G'L	sf
8E'J	.
=45	=45
!!linebreak:original
8F'L	.
(16FL	.
16GJJ)	.
8A'L	.
8F'J	sf
8d'L	.
(<16BL	.
16cJJ)	.
8d'L	sf
8B'J	.
=46	=46
(8cL	.
8GJ)	.
[4E	.
8EL]	.
(16EL	.
16FJJ)	.
8G'L	.
8E'J	.
=47	=47
8F'L	.
(16FL	.
16GJJ)	.
8A'L	.
8F'J	.
8d'L	.
(16BL	.
16cJJ)	.
8d'L	.
8B'J	.
=48	=48
(8cL	.
8GJ)	.
4E	.
8r	.
(16c#XLL	.
16dJJ)	.
8e'L	.
8c#'J	.
=49	=49
(8dL	.
8AJ)	.
4F	.
8r	.
(16c#XLL	.
16dJJ)	.
8e'L	.
8c#'J	.
=50	=50
(8dL	.
8AJ)	.
!LO:TX:a:i:t=ten.	!
4F	.
(8fL	.
8dJ)	.
!LO:TX:a:i:t=ten.	!
4d	.
=51	=51
!!linebreak:original
(8eL	.
8cnJ)	.
!LO:TX:a:i:t=ten.	!
4G	.
(8AL	.
8FJ)	.
!LO:TX:a:i:t=ten.	!
4C	.
=52	=52
[2C	.
8CL]	.
(16DL	.
16EJJ	.
16FLL	.
16G	.
16A	.
16BJJ)	.
=53	=53
(4c	.
8dL	.
8eJ)	.
(8fL	.
8f#X	.
8g	.
8fnJ)	.
=54	=54
(8eL	.
8c)	.
8G'	.
8G'J	.
(8cL	.
8G)	.
8E'	.
8E'J	.
=55	=55
(8cL	.
8A)	.
8F'	.
8F'J	.
(8AL	.
8F)	.
8C'	.
8C'J	.
=56	=56
(8CL	.
16DL	.
16EJJ	.
16FLL	.
16G	.
16A	.
16BJJ	.
16cLL)	.
(16E	.
16F	.
16GJJ	.
16ALL	.
16B	.
16c	.
16dJJ)	.
=57	=57
8e	.
8r	p
4r	.
2r	.
=58	=58
!!linebreak:original
4r	.
8c#X	p
8r	.
[2d	.
=59	=59
2d_	.
4d]	.
(8BL	.
8FJ)	.
=60	=60
4E	.
4r	.
8r	.
8GL	.
8G	.
8GJ	.
=61	=61
4G	.
4r	.
8r	.
8D'L	.
(8D	.
8FJ)	.
=62	=62
4E	.
4r	.
8r	.
8gL	.
8g	.
8gJ	.
=63	=63
4g	.
4r	.
8r	.
8D'L	.
(8D	.
8FJ)	.
=64	=64
4E	.
4r	.
2r	.
=65	=65
1r	.
=66	=66
2r	.
4r	.
8c#X'	.
8r	.
=67	=67
(2d	<
2G) 2f	>
=68	=68
2.cn	]
8c#X'	.
8r	.
=69	=69
!!linebreak:original
(2d	<
2G) 2f	[
=70	=70
2.cn	[
(4c	.
=71	=71
4d	.
4B	.
4G#X	.
4B)	.
=72	=72
8c'	.
8r	.
8B'	.
8r	.
[2c	.
=73	=73
8c]	.
8r	.
8B'	.
8r	.
[2c	.
=74	=74
!LO:TX:b:i:t=cresc.	!
8cL]	.
8B'J	.
4.c	.
8B'	.
[4c	.
=75	=75
8c]	.
8B	.
4.c	.
8B	.
[4c	.
=76	=76
8c]	f
8r	.
8f#X 8a	.
8r	.
8f# 8a	.
8r	.
8F#X 8A	.
8r	.
=77	=77
8D 8c	.
8r	.
4r	.
2r	.
=78	=78
!!linebreak:original
8D 8B	f
8r	.
4r	.
2r	.
=79	=79
4r	.
(16ELL	p
16F#X	.
16G#X	.
16EJJ	.
16ALL	.
16B	.
16c	.
16AJJ)	.
8e'L	.
8e'J	.
=80	=80
(4e	.
2d)	.
(4d	.
=81	=81
8Gn)	.
8r	.
8g	.
8r	.
8g	.
8r	.
8c	.
8r	.
=82	=82
8B	f
8r	.
(16DLL	p
16E	.
16F#X	.
16DJJ	.
16GLL	.
16A	.
16B	.
16GJJ)	.
8d'L	.
8d'J	.
=83	=83
(4d	.
[2.c)	.
=84	=84
2c]	.
2B	.
=85	=85
(2.A	.
4E)	.
=86	=86
!!linebreak:original
(2D#X	pp
4E	.
4G)	.
=87	=87
(4F#X	.
4D#X	.
4E	.
4G)	.
=88	=88
!LO:TX:b:i:t=cresc.	!
[1G	.
=89	=89
2G]	.
[2G	.
=90	=90
16GLL]	f
16C	.
16D	.
16EJJ	.
16FLL	.
16G	.
16A	.
16BJJ	.
16cLL	f
(<16c	.
16B	.
16cJJ	.
16dLL	.
16c	.
16B	.
16cJJ)	.
=91	=91
16r	f
(16BLL	.
16A	.
16BJJ	.
16cLL	.
16B	.
16A	.
16BJJ)	.
16r	.
(16ALL	f
16c	.
16AJJ	.
16cLL	.
16A	.
16c	.
16AJJ)	.
=92	=92
8B	p
8r	.
4r	.
4r	.
8f#X'	.
8r	.
=93	=93
!!linebreak:original
(4g	.
4fn	.
4e	.
8dL	.
8cJ)	.
=94	=94
1g	.
=95	=95
[2a	.
4a_	.
(8aL]	.
16bL	.
16ccJJ	.
=96	=96
[2dd)	.
(8ddL]	.
16ccL	.
16bJJ)	.
(16aLL	.
16g	.
16f#X	.
16gJJ)	.
=97	=97
(16f#XLL	.
16a	.
16cc	.
16aJJ	.
16f#LL	.
16d	.
16c	.
16AJJ	.
16F#XLL	.
16A	.
16c	.
16AJJ	.
16F#LL	.
16A	.
16d	.
16cJJ)	.
=98	=98
!LO:TX:b:i:t=cresc.	!
(16BLL	.
16D	.
16E	.
16F#XJJ	.
16GLL	.
16F#	.
16G	.
16AJJ	.
8BL)	.
8D	.
8D	.
8DJ	.
=99	=99
*^	*
8D	4ryy	.
8r	.	.
2.f#Xt	1536%163f#yy	.
.	32gLLLyy	.
.	32f#yy	.
.	32gyy	.
.	32f#yy	.
.	32gyy	.
.	32f#yy	.
.	32gyy	.
.	32f#yy	.
.	32gyy	.
.	32f#yy	.
.	32gyy	.
.	32f#yy	.
.	32gyy	.
.	32f#yy	.
.	32gyy	.
.	32f#yy	.
.	32gyy	.
.	32f#yy	.
.	32gyy	.
.	32f#JJJyy	.
.	3072ryy	.
.	512.ryy	.
.	64ryy	.
*v	*v	*
=100	=100
!!linebreak:original
4g	f
4r	.
2r	.
=101	=101
(16GLL	.
16F#X	.
16G	.
16EJJ)	.
8D'L	.
8E'J	.
8F#'L	.
8G'	.
8A'	.
8B'J	.
=102	=102
8G'L	.
8A'	.
8B'	.
8A'J	.
8c'L	.
8B'	.
8D'	sf
8D'J	.
=103	=103
8B'L	.
8A'	.
8E'	.
8E'J	sf
8Fn'L	.
8E'	.
8D'	.
8D'J	sf
=104	=104
8d'L	.
8d'	.
8c'	.
8B'J	.
8c 8e	.
8r	.
8c 8d	.
8r	.
=105	=105
4B 4d	.
8r	.
8c'	.
4B'	.
8r	.
8c	.
=106	=106
4B	.
8r	.
8F#X	.
4G	.
8r	.
8E	.
=107	=107
!!linebreak:original
4D	.
4r	.
4r	.
8e'	.
8r	p
=108	=108
2.fn	.
8e'	.
8r	.
=109	=109
[1f	.
=110	=110
2.f]	.
8G'	.
8r	.
=111:|!	=111:|!
8D	.
8r	.
4r	.
4r	.
8e'	p
8r	.
=112	=112
2.f	.
8e'	.
8r	.
=113	=113
[1f	.
=114	=114
2.f]	.
!LO:TX:b:i:t=cresc.	!
8f#X	.
8r	.
=115	=115
8g	.
8r	.
8c#X	.
8r	.
8d	.
8r	.
8e-X	.
8r	.
=116	=116
2.fn	p
4r	.
=117	=117
1r	.
=118	=118
1r	.
=119	=119
1r	.
=120	=120
1r	.
=121	=121
1r	.
=122	=122
!!linebreak:original
4r	.
(4d	.
8e-X)	.
8r	.
8G'	.
8r	.
=123	=123
2.A-X	.
8G'	.
8r	.
=124	=124
2.A-X	.
8A-'L	.
16r	.
16G'Jk	.
=125	=125
(8EL	.
8FJ)	.
8F'L	.
16r	.
16E-X'Jk	.
(8CL	.
8DJ)	.
4r	.
=126	=126
2r	.
4r	.
8a-X'L	.
16r	.
16g'Jk	.
=127	=127
(8enL	.
8fJ)	.
8f'L	.
16r	.
16e-X'Jk	.
(8cL	.
8dJ)	.
4r	.
=128	=128
2r	.
4r	.
8b-X'L	.
16r	.
16cc'Jk	.
=129	=129
!!linebreak:original
(8ccL	.
8b-XJ)	.
4r	.
4r	.
8b-'L	.
16r	.
16cc'Jk	.
=130	=130
(8ccL	.
[8b-XJ)	.
2.b-_	pp
=131	=131
(2.b-]	.
[4g)	.
=132	=132
2.g]	.
8g'	.
8r	.
=133	=133
(2f#X	.
2e	.
=134	=134
2d#X	.
2B	.
=135	=135
2A	.
2G)	.
=136	=136
!LO:TX:b:i:t=cresc.	!
1F#X	.
=137	=137
1G	.
=138	=138
*^	*
16ALL	2ryy	f
16C	.	.
16C	.	.
16CJJ	.	.
16CLL	.	.
16C	.	.
16C	.	.
16CJJ	.	.
2C	16CLLyy	.
.	16Cyy	.
.	16Cyy	.
.	16Cyy	.
.	16Cyy	.
.	16Cyy	.
.	16Cyy	.
.	[16CJJyy	.
=139	=139	=139
!!linebreak:original
2C	16CLL]	f
.	16Cyy	.
.	16Cyy	.
.	16Cyy	.
.	16Cyy	.
.	16Cyy	.
.	16Cyy	.
.	16Cyy	.
2c	16cyy	.
.	16cyy	.
.	16cyy	.
.	16cyy	.
.	16cyy	.
.	16cyy	.
.	16cyy	.
.	16cJJyy	.
*v	*v	*
=140	=140
4c	p
4r	.
8r	.
8cL	.
8c	.
8cJ	.
=141	=141
4c	.
4r	.
8r	.
8B-X'L	.
(8B-	.
8GJ)	.
=142	=142
(16FLL	.
16A	.
16G	.
16B-XJJ	.
16ALL	.
16c	.
16B-	.
16dJJ)	.
2c	.
=143	=143
16B-XLL	.
16d	.
16c	.
16AJJ	.
16GLL	.
16B-	.
16A	.
16FJJ	.
16ELL	.
16G	.
16F	.
16DJJ	.
8CL	.
16DL	.
16EJJ	.
=144	=144
8F	.
8r	.
4r	.
2r	.
=145	=145
2r	.
4r	.
8F#X'	p
8r	.
=146	=146
(2G	.
2B-X)	.
=147	=147
!!linebreak:original
(4A	.
2Fn	.
4F#X)	.
=148	=148
(2G	.
2B-X)	.
=149	=149
!LO:TX:b:i:t=cresc.	!
8A'	.
8r	.
8G#X'	.
8r	.
[2A	.
=150	=150
8A]	.
8r	.
8G#X'	.
8r	.
[2A	.
=151	=151
4A]	.
8G#X'	.
8r	.
[2A	.
=152	=152
4A]	.
8F#X'	.
8r	.
[2Gn	.
=153	=153
16GLL]	f
16C	.
16E-X	.
16GJJ	.
16cLL	.
16E-	.
16G	.
16cJJ	.
16e-XLL	.
16G	.
16c	.
16e-JJ	.
16gLL	.
16c	.
16e-	.
16gJJ	.
=154	=154
8fn	.
8r	.
4r	.
2r	.
=155	=155
!!linebreak:original
4r	.
4E-X'	ff
[2e-X	.
=156	=156
4e-]	.
4C'	.
[2c	.
=157	=157
4c]	.
4C'	.
[2A-X	.
=158	=158
4A-]	.
4F'	.
[2D-X	.
=159	=159
!LO:TX:b:i:t=dim.	!
4D-]	.
4F'	.
[2A-X	.
=160	=160
4A-]	.
4F'	p
[2D-X	.
=161	=161
4D-]	.
4F'	.
[2A-X	.
=162	=162
4A-]	.
4G-X'	.
[2F	.
=163	=163
4F]	.
4E-X'	.
[2B-X	.
=164	=164
4B-]	.
4A-X'	.
[2G-X	.
=165	=165
!!linebreak:original
4G-]	.
4F'	.
[2E-X	.
=166	=166
4E-]	.
4D'	.
[2A-X	.
=167	=167
4A-]	.
4Gn'	.
[2F	.
=168	=168
4F]	.
4E-X'	.
[2e-X	.
=169	=169
4e-]	.
4c'	pp
[2C	.
=170	=170
4C]	.
4D'	.
[2B	.
=171	=171
4B]	.
4c'	.
[2C	.
=172	=172
8C]	.
8D	.
4.B	.
8c	.
[4C	.
=173	=173
8C]	.
8D	.
!LO:TX:b:i:t=cresc.	!
4.B	.
8c	.
[4C	.
=174	=174
!!linebreak:original
8C]	.
8C#X	.
4.c#X	.
8d	.
[4D	.
=175	=175
8D]	.
8E-X	.
4.e-X	.
8en	.
[4En	.
=176	=176
8E]	.
8F	.
4.f	ff
8F	.
[4f	.
=177	=177
8f]	.
8F	.
4.f	.
8F	.
4f	.
=178	=178
4f	f
4r	.
2r	.
=179	=179
1r	.
=180	=180
4d	p
4r	.
2r	.
=181	=181
1r	.
=182	=182
!!linebreak:original
4r	.
(4c#X	pp
[2d)	.
=183	=183
1d_	.
=184	=184
4d]	.
4r	.
2r	.
=185	=185
1r	.
=186	=186
1r	.
=187	=187
4r	.
8B	.
8r	.
8G	.
8r	.
4r	.
=188	=188
4r	.
(4d#X	pp
[2e)	.
=189	=189
1e_	.
=190	=190
4e]	.
4r	.
2r	.
=191	=191
1r	.
=192	=192
1r	.
=193	=193
4r	.
8c#X	.
8r	.
8A	.
8r	.
(4F#X	.
=194	=194
!LO:TX:b:i:t=cresc.	!
4G)	.
4D-X	.
4Dn	.
4D-X)	.
=195	=195
!!linebreak:original
2.Dn	.
8d'	.
8r	.
=196	=196
[2c	f
8c]	.
(16ELL	.
16FJJ)	.
8G'L	.
8E'J	.
=197	=197
8FL	.
(16FL	.
16GJJ)	.
8A'L	.
8F'J	.
8dL	.
(<16BL	.
16cJJ)	.
8d'L	.
8B'J	.
=198	=198
(8cL	.
8GJ)	.
[4E	.
(16ELL]	.
16F	.
16E	.
16FJJ)	.
8G'L	sf
8E'J	.
=199	=199
(16FLL	.
16G	.
16F	.
16GJJ)	.
8A'L	sf
8F'J	.
(16BLL	.
16c	.
16B	.
16cJJ)	.
8d'L	sf
8B'J	.
=200	=200
(16cLL	.
16G	.
16c	.
16GJJ)	.
4E	.
(16c#XLL	.
16d	.
16c#	.
16dJJ)	.
8e'L	.
8c#'J	.
=201	=201
!!linebreak:original
(16dnLL	.
16A	.
16d	.
16AJJ)	.
4F	.
(16c#XLL	.
16d	.
16c#	.
16dJJ)	.
8e'L	.
8c#'J	.
=202	=202
(16dLL	.
16A	.
16d	.
16AJJ)	.
8F'L	.
8F'J	.
(16fLL	.
16d	.
16f	.
16dJJ)	.
8d'L	.
8B'J	.
=203	=203
(16eLL	.
16cn	.
16e	.
16cJJ)	.
8G'L	.
8g'J	.
(16aLL	.
16f	.
16a	.
16fJJ)	.
8c'L	.
8c'J	.
=204	=204
(8cL	.
16dL	.
16eJJ	.
16fLL	.
16g	.
16a	.
16bJJ)	.
[2cc	.
=205	=205
8ccL]	.
(8c	.
8d	.
8eJ)	.
(4e	.
8dL	.
8fJ)	.
=206	=206
!!linebreak:original
(12eL	.
12c)	.
12G'J	.
12GL	.
12G	.
12GJ	.
(12cL	.
12G)	.
12E'J	.
12EL	.
12E	.
12EJ	.
=207	=207
(12AL	.
12F)	.
12C'J	.
12CL	.
12C	.
12CJ	.
(12FL	.
12C)	.
12C'J	.
12CL	.
12C	.
12CJ	.
=208	=208
16CLL	.
(16E	.
16F	.
16GJJ	.
16ALL	.
16B	.
16c	.
16dJJ	.
16eLL)	.
(<16G	.
16A	.
16BJJ	.
16cLL	.
16d	.
16e	.
16fJJ)	.
=209	=209
8g	.
8r	.
4r	.
2r	.
=210	=210
2r	.
4r	.
8c#X	p
8r	.
=211	=211
(2d	.
2G) 2f	.
=212	=212
!!linebreak:original
2.cn	.
8c#X'	.
8r	.
=213	=213
(2d	.
2G) 2f	.
=214	=214
2.cn	.
8e'	.
8r	.
=215	=215
(2d	.
2c	.
=216	=216
2B	.
2A)	.
=217	=217
(4.B-X	.
8G	.
8A)	.
8r	.
4r	.
=218	=218
(4.A-X	.
8F	.
8G)	.
8r	.
4r	.
=219	=219
2c#X	.
(16dLL	.
16An	.
16f	.
16dJJ)	.
8aL	.
8aJ	.
=220	=220
2B	.
(>16cnLL	.
16G	.
16e	.
16cJJ)	.
8gL	.
8gJ	.
=221	=221
!!linebreak:original
2.g	p
8a-X'	.
8r	.
=222	=222
2.g	.
8a-X'	.
8r	.
=223	=223
4.g	.
!LO:TX:b:i:t=cresc.	!
8a-X'	.
4.g	.
8a-'	.
=224	=224
4.g	.
8a-X'	.
4.g	.
8a-'	.
=225	=225
8.gL	.
16a-XJk	.
8.gL	.
16a-Jk	.
8.gL	.
16a-Jk	.
8.gL	.
16a-Jk	.
=226	=226
8g	f
8r	.
8d 8f	.
8r	.
8d 8f	.
8r	.
8B 8d	.
8r	.
=227	=227
8B 8d	.
8r	.
4r	.
2r	.
=228	=228
8C	f
8r	.
4r	.
2r	.
=229	=229
8A	.
8r	p
4r	.
2r	.
=230	=230
!!linebreak:original
2r	.
4r	.
(4d	.
=231	=231
8G)	.
8r	.
8c	.
8r	.
8c	.
8r	.
8F 8G	.
8r	.
=232	=232
8E 8G	f
8r	.
(<16GLL	p
16A	.
16B	.
16GJJ	.
16cLL	.
16d	.
16e	.
16cJJ)	.
8g'L	.
8g'J	.
=233	=233
(4g	.
[2.f)	.
=234	=234
2f]	.
[2e	.
=235	=235
(4e]	.
2d	.
4D)	.
=236	=236
[1E	pp
=237	=237
4E]	.
2E	.
[4E	.
=238	=238
!LO:TX:b:i:t=cresc.	!
4E_	.
16ELL]	.
(16F	.
16G	.
16FJJ	.
16ELL	.
16F	.
16E	.
16DJJ	.
16CLL	.
16D	.
16E	.
16FJJ)	.
=239	=239
!!linebreak:original
(16GLL	.
16A	.
16G	.
16FJJ	.
16ELL	.
16F	.
16E	.
16DJJ)	.
2C 2G	.
=240	=240
16CLL 16A	f
16F	.
16G	.
16AJJ	.
16BLL	.
16c	.
16d	.
16eJJ	.
16f'LL	f
(>16f	.
16e	.
16fJJ	.
16gLL	.
16f	.
16e	.
16fJJ)	.
=241	=241
16r	f
(16eLL	.
16d#X	.
16eJJ	.
16fLL	.
16e	.
16d#	.
16eJJ)	.
16r	.
(16dnLL	f
16f	.
16dJJ	.
16fLL	.
16d	.
16f	.
16dJJ)	.
=242	=242
8e	.
8r	p
4r	.
4r	.
8dd'	.
8r	.
=243	=243
(4cc	.
4b-X	.
4a	.
8gL	.
8fJ)	.
=244	=244
!!linebreak:original
(8gL	.
16aL	.
16bnJJ	.
16ccLL	.
16b	.
16cc	.
16ddJJ	.
2ee)	.
=245	=245
2dd	.
4d	.
4d 4f	.
=246	=246
2c 2e	.
(2c	.
=247	=247
2.d	.
[4G)	.
=248	=248
!LO:TX:b:i:t=cresc.	!
8GL]	.
(16GL	.
16FJJ	.
16ELL	.
16F	.
16E	.
16DJJ)	.
8C'L	.
8G'	.
8G'	.
8G'J	.
=249	=249
*^	*
4G	4ryy	.
2.bt	1536%163byy	.
.	32ccLLLyy	.
.	32byy	.
.	32ccyy	.
.	32byy	.
.	32ccyy	.
.	32byy	.
.	32ccyy	.
.	32byy	.
.	32ccyy	.
.	32byy	.
.	32ccyy	.
.	32byy	.
.	32ccyy	.
.	32byy	.
.	32ccyy	.
.	32byy	.
.	32ccyy	.
.	32byy	.
.	32ccyy	.
.	32bJJJyy	.
.	3072ryy	.
.	512.ryy	.
.	64ryy	.
*v	*v	*
=250	=250
4cc	f
4r	.
2r	.
=251	=251
(16cLL	f
16B	.
16c	.
16AJJ)	.
8G'L	.
8A'J	.
8B'L	.
8c'	.
8d'	.
8e'J	.
=252	=252
!!linebreak:original
8c'L	f
8d'	.
8e'	.
8d'J	.
8f'L	.
8e'	.
8g'	sf
8g'J	.
=253	=253
8aL	.
8a	.
8g	sf
8fJ	.
8cL	.
8f	.
8f	sf
8eJ	.
=254	=254
8fL	.
8e	.
8c	.
8cJ	.
8c	.
8r	.
8G 8f	.
8r	.
=255	=255
4G 4e	.
8r	.
8G' 8f	.
4G' 4e	.
8r	.
8c 8f	.
=256	=256
4c 4e	.
8r	.
8B	.
4c	.
8r	.
8F	.
=257	=257
4E	.
4r	.
2r	.
=258	=258
4r	.
8A'	p
8r	.
[2G	.
=259	=259
4G]	.
4r	.
2r	.
=260	=260
!!linebreak:original
4r	.
8A	.
8r	.
[2G	.
=261	=261
4G]	.
4r	.
4r	.
!LO:TX:b:i:t=dim.	!
[4G	.
=262	=262
4G]	.
4r	.
4r	.
[4G	.
=263	=263
1G_	pp
=264	=264
1G_	.
=265	=265
8G]	.
!LO:TX:a:i:t=string. il tempo.	!
!LO:TX:b:i:t=cresc.	!
8r	.
8f	.
8r	.
8f	.
8r	.
8g	.
8r	.
=266	=266
8g	.
8r	.
8f	.
8r	.
8f#X	.
8r	.
8g	.
8r	.
=267	=267
8a	.
8r	.
8a	.
8r	.
8b	.
8r	.
8b	.
8r	.
=268	=268
*^	*
2cc	2ryy	f
2ddT	768%61ddyy	.
.	768%23eeyy	.
.	768%23ddyy	.
.	768%23eeyy	.
.	768%23ddyy	.
.	768%23eeyy	.
.	768%23ddyy	.
.	768%23eeyy	.
.	768%23ddyy	.
.	768%23eeyy	.
.	768%23ddyy	.
.	768%23eeyy	.
.	768%23ddyy	.
.	768%23eeyy	.
.	768%23ddyy	.
.	576...ryy	.
*v	*v	*
=269	=269
4cc	.
4r	.
4G 4d	ff
4r	.
=270	=270
4C 4c	.
4r	.
2r	.
=271!|:	=271!|:
!!linebreak:original
*k[]	*
*a:	*
*M6/8	*
!LO:TX:a:B:t=Andante con moto quasi Allegretto.	!
2.r	.
=272	=272
2.r	.
=273	=273
8r	.
8r	p
(8A	.
8G#XL	.
8A	.
8BJ)	.
=274	=274
(8AL	.
8G#X	.
8FJ	.
4E	.
8D)	.
=275	=275
4C	.
8r	.
4r	.
8r	.
=276	=276
2.r	.
=277:|!	=277:|!
4C	.
8r	.
4r	.
8r	.
=278	=278
2.r	.
=279!|:	=279!|:
8r	.
8r	.
(8c	p
8B-XL	.
8A	.
8EJ)	.
=280	=280
(8EL	.
8F)	.
8FJ	.
(8GL	.
8F	.
8C#XJ)	.
=281	=281
!!linebreak:original
(8C#XL	.
8DJ)	.
(8A	.
8fL	fp
8e	.
8dJ)	.
=282	=282
(8c#XL	.
8B-X	.
8AJ	.
8GL	.
8F	.
8EJ)	.
=283	=283
(8DL	.
8E	.
8FJ)	.
(<8BnL	.
8cn	.
8dJ	.
=284	=284
8cL	.
8B	.
8AJ)	.
(4.d#X	.
=285	=285
4.e)	sfp
(<8BL	.
8c	.
8dnJ	.
=286	=286
8cL	.
8B	.
8AJ)	.
(4.d#X	sfp
=287	=287
4.e)	.
(4.d#X	.
=288	=288
4.e)	sfp
4B	.
!LO:TX:b:i:t=cresc.	!
8B	.
=289	=289
(4c	p
[8f)	.
(4f]	.
8B)	.
=290	=290
!LO:TX:b:i:t=cresc.	!
(8BL	.
8f	.
8eJ	.
8dL	.
8c	.
8BJ)	.
=291	=291
!!linebreak:original
(8cL	.
8A)	f
8A'J	.
(8FL	>
8f	.
8BJ)	.
=292	=292
4c	]
8r	p
4r	.
8r	.
=293:|!	=293:|!
(4E	p
8A	.
8G#XL	.
8A)	.
8E'J	.
=294	=294
(4E	.
8A)	.
(16G#XLL	.
16A)	.
(16D	.
16E)	.
(16F	.
16EJJ)	.
=295	=295
(4E	.
8A)	.
(16G#XLL	.
16A)	.
(16G#	.
16AJ)	.
8E'J	.
=296	=296
!!linebreak:original
(4E	.
8A)	.
(16G#XLL	.
16A)	.
(16D	.
16E)	.
(16F	.
16EJJ)	.
=297	=297
(4E	.
16FLL	.
16EJJ)	.
(4E	.
16FLL	.
16EJJ)	.
=298	=298
4E	.
(8cc	.
8dd-XL	f
8b-X	>
8a-XJ)	.
=299	=299
(8gL	]
8b-X	p
8fJ)	.
(8eL	.
8g	.
8cJ	.
=300	=300
8d-XL	.
8B-X	.
8A-XJ)	.
(8G-XL	.
8B-	sfp
8FJ	.
=301	=301
8EL	.
8Gn	.
8B-XJ)	.
(8G-XL	.
8B-X	.
8FJ	sfp
=302	=302
8EL	.
8Gn	.
8B-XJ)	.
(8G-XL	.
8B-X	.
8FJ	sfp
=303	=303
!!linebreak:original
8EL	.
8Gn	.
8D-XJ)	.
(8CL	.
8E	.
8GJ)	.
=304	=304
4F	.
8r	.
8r	.
8r	.
[8a-X	sfp
=305	=305
(4a-]	.
8g)	.
8r	.
8r	.
[8a-X	sfp
=306	=306
(4a-]	.
8g)	.
(8d-XL	.
8f	.
8cJ)	.
=307	=307
!LO:TX:b:i:t=cresc.	!
(8BL	.
8dn	.
8A-XJ	.
8GL	.
8B	.
8GJ	.
=308	=308
8A-XL	.
8c	.
8FJ	.
8F#XL	.
8G	.
8AnJ)	.
=309	=309
*^	*
4D	4ryy	p
(8DT	1536%67Dyy	sf
.	32E-XLLLyy	.
.	32DJJJyy	.
.	3072ryy	.
.	512.ryy	.
.	64ryy	.
4E-X	4.ryy	.
8C)	.	.
=310	=310	=310
4D	4ryy	.
(8DT	1536%67Dyy	sf
.	32E-XLLLyy	.
.	32DJJJyy	.
.	3072ryy	.
.	512.ryy	.
.	64ryy	.
4E-X	4.ryy	.
8C)	.	.
=311	=311	=311
!!linebreak:original
4D	4ryy	.
(8DT	1536%67Dyy	sf
.	32E-XLLLyy	.
.	32DJJJyy	.
.	3072ryy	.
.	512.ryy	.
.	64ryy	.
4E-X	4.ryy	.
8C)	.	.
=312	=312	=312
4D	4ryy	.
(8DT	1536%67Dyy	sf
.	32ELLLyy	.
.	32DJJJyy	.
.	3072ryy	.
.	512.ryy	.
.	64ryy	.
4E-X	4.ryy	.
8C)	.	.
*v	*v	*
=313	=313
!LO:TX:b:i:t=dim.	!
(4D	.
8E-X	.
4D	.
8En)	.
=314	=314
(4F	.
8F#X	.
[4.G)	.
=315	=315
!LO:TX:b:i:t=dol.	!
(4.G]	.
8G#XL	.
8A)	.
8A'J	.
=316	=316
(<8BL	.
8c	.
8dJ	.
8c)	.
8r	.
[8Gn	.
=317	=317
(4.G]	.
8G#XL	.
8A)	.
8A'J	.
=318	=318
(<8BL	.
8c	.
8dJ)	.
8cL	.
16A'L	.
16B'	.
16c'	.
16d'JJ	.
=319	=319
!!linebreak:original
(16qqc/LL	.
16qd/JJ)	.
8d'L	.
8c'	.
8B'J	.
(8BL	.
8c)	.
8B'J	.
=320	=320
[4.G	.
8GL]	.
16A'L	.
16B'	.
16c'	.
16d'JJ	.
=321	=321
(16qqc/LL	.
16qd/JJ)	.
8d'L	.
8c'	.
8B'J	.
(8BL	.
8c)	.
8A'J	.
=322	=322
[4.G	.
!LO:TX:b:i:t=cresc.	!
(8GL]	.
8F)	.
8D'J	.
=323	=323
(8CL	p
8G	.
8cJ)	.
(8FL	.
8D	.
8BJ)	.
=324	=324
(8GL	.
8E	.
8cJ)	.
(8FL	.
8D	.
8BJ)	.
=325	=325
!!linebreak:original
(8GL	.
8E	.
8cJ)	.
(8FL	.
8D	.
8BJ)	.
=326	=326
(8EL	.
8G	.
[8A-XJ)	sfp
(8A-L]	.
8F	.
8GJ)	.
=327	=327
(8EL	.
8G	.
[8A-XJ)	.
(8A-L]	sfp
8F	.
8GJ)	.
=328	=328
(8EL	.
8G	.
[8A-XJ)	sfp
(8A-L]	.
8F	.
8GJ)	.
=329	=329
(8EL	.
!LO:TX:b:i:t=dim.	!
8G	.
8FJ)	.
(8EL	.
8G	.
8FJ)	.
=330	=330
(8EL	.
8G	.
8FJ)	.
(8EL	.
8G	.
8FJ)	.
=331	=331
4E	pp
8r	.
4E	.
8r	.
=332	=332
4E	.
8r	.
4r	.
8r	.
=333	=333
!!linebreak:original
4r	.
8r	.
8r	.
8r	.
[8D-X	sfp
=334	=334
(4D-]	.
8C)	.
8r	.
8r	.
[8D-X	sfp
=335	=335
(4D-]	.
8C)	.
8r	.
8r	.
[8D-X	.
=336	=336
(8D-L]	.
8C	.
[8B-XJ)	.
(8B-L]	.
8G	.
8cJ)	.
=337	=337
8A-X	.
(8cL	.
8eJ	.
8fL	.
8c	.
8B-XJ)	.
=338	=338
(8A-XL	.
8c	.
8GJ)	.
(8FL	.
8A-	.
8E-XJ	sfp
=339	=339
8DL	.
8F	.
8A-XJ)	.
(8FL	.
8A-	.
8E-XJ	sfp
=340	=340
!!linebreak:original
8DL	.
8F	.
8A-XJ)	.
(8FL	.
8A-	.
8E-XJ	sfp
=341	=341
8DL	.
8F	.
8A-XJ)	.
(8DL	.
8F	.
8BJ)	.
=342	=342
(8E-XL	.
8G-X)	.
([8B-XJ	.
8B-L]	.
8G-X	.
8E-XJ	.
=343	=343
8DL	.
8F)	.
([8B-XJ	.
8B-L]	.
8A-X	.
8FJ	.
=344	=344
8E-XL	.
8G-X)	.
[8B-XJ	.
4.B-_	.
=345	=345
2.B-_	.
=346	=346
4B-]	.
!LO:TX:b:i:t=cresc.	!
[8G-X	.
4.G-]	.
=347	=347
!!linebreak:original
[4.F	.
(8FL]	.
8c	.
8e-XJ)	.
=348	=348
8d-X	p
8r	.
(<[8d-	.
8d-L]	.
8B-X	.
[8FJ	.
=349	=349
8FL]	.
8c)	.
([8e-XJ	.
8e-L]	.
8c	.
[8FJ	.
=350	=350
8FL]	.
8B-X	.
8d-XJ)	.
[4.F	.
=351	=351
2.F_	.
=352	=352
4F]	.
!LO:TX:b:i:t=cresc.	!
[8B-X	.
4.B-_	.
=353	=353
*^	*
2.C	4.B-_	.
.	4B-]	.
.	8G	.
*v	*v	*
=354	=354
4C 4A-X	f
([8c	sf
4c]	>
8d-X	.
=355	=355
4.Bn	.
4.dn)	.
=356	=356
!!linebreak:original
(8CL	f
8E-X	.
8GJ	.
8cL	.
8e-X	>
8cJ	.
=357	=357
8A-XL	.
8c	.
8AnJ	.
8F#XL	.
8A	.
8DJ)	.
=358	=358
[2.D	p
=359	=359
2.D_	.
=360	=360
4D]	.
[8D	.
(8DL]	.
8G	.
8B-XJ	.
=361	=361
8cL	.
8A)	.
[8DJ	.
8DL]	.
8F#X	.
8AJ	.
=362	=362
4B-X	f
8r	.
4r	.
[8g	sf
=363	=363
4.g_	p
(8gL]	.
8e	.
8AJ)	.
=364	=364
(8DL	f
8G	.
8B-XJ	.
8dL	.
8f	.
8dJ)	.
=365	=365
!!linebreak:original
8r	.
(8dL	p
8BnJ)	.
8r	.
(8G#XL	.
8EJ)	.
=366	=366
(8AL	.
8A	.
8BJ	.
8cL	.
8A	.
8FJ)	.
=367	=367
(8EL	.
8G#X	.
8BJ)	.
(8EL	.
8B	.
8dJ)	sf
=368	=368
(8cL	.
8A	p
8BJ	.
8cL	.
8A	.
8FJ)	.
=369	=369
(8EL	.
8G#X	.
8BJ)	.
(8EL	.
8B	.
8dJ)	sf
=370	=370
(8cL	.
8A	p
8BJ	.
8cL	.
8A	.
8FJ)	.
=371	=371
(8EL	.
8G#X	.
8BJ)	.
(8cL	.
8A	sf
8FJ)	.
=372	=372
(8EL	.
8G#X	.
8BJ)	.
(8cL	sf
8A	.
8FJ)	.
=373	=373
!!linebreak:original
(8EL	.
!LO:TX:b:i:t=dim.	!
8G#X	.
8BJ)	.
(8EL	.
8G#	.
8BJ)	.
=374	=374
(8EL	.
8G#X	.
8BJ)	.
[4.E	.
=375	=375
(4.E]	.
8E#XL	.
8F#X)	.
8F#'J	.
=376	=376
(8G#XL	.
8A	.
8BJ	.
4A)	.
8r	.
=377	=377
(4.En	.
8E#XL	.
8F#X)	.
8F#'J	.
=378	=378
(8G#XL	.
8A	.
8BJ)	.
8A'L	.
16F#X'L	.
16G#'	.
16A'	.
16B'JJ	.
=379	=379
(16qqA/LL	.
16qqB/JJ)	.
8c#X'L	.
8B'	.
8A'J	.
(8G#XL	.
8A)	.
8F#X'J	.
=380	=380
!!linebreak:original
[4.E	.
8EL]	.
16F#X'L	.
16G#X'	.
16A'	.
16B'JJ	.
=381	=381
(16qqA/LL	.
16qqB/JJ)	.
8c#X'L	.
8B'	.
8A'J	.
(8G#XL	.
8A)	.
8F#X'J	.
=382	=382
!LO:TX:b:i:t=cresc.	!
(4E	.
[8e)	.
(8eL]	.
8d)	.
8B'J	.
=383	=383
8AL	p
(8A	.
8c#XJ	.
8BL	.
8G#X	.
8dJ)	.
=384	=384
(8AL	.
8E	.
8c#XJ	.
8G#XL	.
8D	.
8BJ)	.
=385	=385
!LO:TX:b:i:t=cresc.	!
(8EL	.
8C#X	.
8AJ)	.
(8DL	.
8F)	.
8EJ	.
=386	=386
!LO:TX:b:i:t=dim.	!
(4C#X	.
8D)	.
(4C#	.
8D)	.
=387	=387
!!linebreak:original
(4C#X	.
8D)	.
(4C#	.
8D)	.
=388	=388
4D	.
8r	pp
4r	.
8r	.
=389	=389
4r	.
8r	.
8r	.
!LO:TX:b:i:t=cresc.	!
8B-XL	.
8B-J	.
=390	=390
4B-X 4f	.
8r	f
4r	.
8r	.
=391	=391
2.r	.
=392	=392
!	!LO:DY:a
4r	p
8r	.
8r	.
8r	.
8A-X'	.
=393	=393
(8FL	p
8G	.
8A-XJ	.
4.G)	.
=394	=394
4r	.
8r	.
4r	.
8A-X	.
=395	=395
!LO:TX:b:i:t=cresc.	!
(8FL	.
8G	.
8A-XJ	.
4B-X	.
8A-)	.
=396	=396
(<8GL	p
8B-X	.
8GJ	.
8dL	.
8B-	.
8fJ)	.
=397	=397
!!linebreak:original
(>8e-XL	.
8B-X	.
8gJ)	.
(8dL	.
8B-	.
8fJ)	.
=398	=398
(8e-XL	sfp
8B-X	.
[8GJ)	.
(8GL]	.
8F	.
[8A-XJ)	.
=399	=399
(8A-L]	.
8G	.
[8B-XJ)	.
(<8B-L]	.
8d)	.
8dJ	.
=400	=400
[2.e-X	.
=401	=401
(4.e-]	fp
!LO:TX:b:i:t=dim.	!
[4.g)	.
=402	=402
(4.g]	.
[4.b-X)	.
=403	=403
(4.b-]	.
4.a)	.
=404	=404
!!linebreak:original
!LO:TX:b:i:t=sempre dim.	!
[2.a	.
=405	=405
4.a]	.
(4.a	.
=406	=406
4.g#X)	pp
(4.g#	.
=407	=407
4.a	.
4.f#X)	.
=408	=408
4g#X	.
8r	.
4r	.
8r	.
=409	=409
2.r	.
=410	=410
2.r	.
=411	=411
4r	.
8r	.
(8dL	.
8e	p
8fJ	.
=412	=412
8eL	.
8d	.
8cJ)	.
(8G#XL	.
8A	.
8BJ)	.
=413	=413
(<8AL	.
8B	.
8cJ	.
8dL	.
8c	.
8BJ)	.
=414	=414
4A	.
8r	.
4r	.
8r	.
=415	=415
!!linebreak:original
2.r	.
=416	=416
4r	.
8r	.
(8cL	.
8B	.
8AJ)	.
=417	=417
(8G#XL	.
8A	.
8BJ)	.
(<8dL	.
8c	.
8BJ	.
=418	=418
8AL	.
8G#X	.
8AJ)	.
(8G#L	.
8A	.
8BJ	.
=419	=419
8AL	.
8Gn	.
8FJ)	.
(4E	.
8D	.
=420	=420
4C)	.
8r	.
4r	.
8r	.
=421	=421
!!linebreak:original
2.r	.
=422	=422
8r	.
8r	.
8E	.
(8B-XL	p
8A	.
8EJ)	.
=423	=423
(8GL	.
8F)	.
8FJ	.
(8GL	.
8F	.
8C#XJ)	.
=424	=424
(8EL	.
8DJ)	.
8A	.
(8fL	fp
8e	.
8dJ	.
=425	=425
8c#XL	.
8B-X	.
8AJ	.
8GL	.
8F	.
8EJ	.
=426	=426
8DL	.
8E	.
8FJ)	.
(<8BnL	.
8c	.
8dJ	.
=427	=427
8cL	.
8B	.
8AJ)	.
[4.E	.
=428	=428
!!linebreak:original
4.E]	sfp
(<8BL	.
8c	.
8dJ	.
=429	=429
8cL	.
8B	.
8AJ)	.
[4.E	sfp
=430	=430
4.E]	.
[4.E	sfp
=431	=431
4.E]	.
!LO:TX:b:i:t=cresc.	!
(<8BL	.
8c	.
8dJ)	.
=432	=432
(4c	p
8F	.
4f	.
8B)	.
=433	=433
!LO:TX:b:i:t=cresc.	!
(<8dL	.
8G#X	.
8AJ	.
8BL	.
8c	.
8dJ)	.
=434	=434
(8cL	f
8A)	>
[8FJ	.
(8FL]	.
8f)	.
8EJ 8d	.
=435	=435
4E 4c	]
8r	p
4r	.
8r	.
=436	=436
!!linebreak:original
4r	.
8e	p
(8eL	.
8f	.
8gJ)	.
=437	=437
(8gL	.
8f	.
8cJ)	.
(8c#XL	.
8d	.
8eJ)	.
=438	=438
(8eL	.
8d)	.
8dJ	.
[4.A	.
=439	=439
4.A_	fp
(8AL]	.
8B	.
8c#XJ)	.
=440	=440
(8dL	.
8c#X	.
8AJ)	.
(<8BL	.
8cn	.
8dJ	.
=441	=441
8cL	.
8B	.
8AJ)	.
(4.d#X	sfp
=442	=442
4.e)	.
(<8BL	.
8c	.
8dnJ	.
=443	=443
8cL	.
8B	.
8AJ)	.
(4.d#X	sfp
=444	=444
4.e)	.
(4.d#X	.
=445	=445
!!linebreak:original
4.e)	sfp
!LO:TX:b:i:t=cresc.	!
4.B	.
=446	=446
(<4c	.
[8A	p
4A]	.
8G#X)	.
=447	=447
!LO:TX:b:i:t=cresc.	!
(4G#X	.
8A	.
8BL	.
8c	.
8G#XJ) 8d	.
=448	=448
4A	f
[8F	>
(8FL]	.
8f	.
8BJ)	.
=449	=449
4E 4c	]
(8A	p
8G#XL	.
8A)	.
8E'J	.
=450	=450
(4E	.
8A)	.
(16G#XLL	.
16A)	.
(16D	.
16E)	.
(16F	.
16EJJ)	.
=451	=451
(4E	.
8A)	.
(16G#XLL	.
16A)	.
(16G#X	.
16AJ)	.
8EJ	.
=452	=452
(4E	.
8A)	.
(16G#XLL	.
16A)	.
(16D	.
16E)	.
(16F	.
16EJJ)	.
=453	=453
!!linebreak:original
(4E	.
16FLL	.
16EJJ)	.
(4E	.
16FLL	.
16EJJ)	.
=454	=454
8E	.
8r	.
(8B-X	f
8G-XL	.
8B-	.
8FJ	.
=455	=455
8EL	sf
8Gn	.
8B-XJ)	.
(8G-XL	.
8B-	.
8FJ	sf
=456	=456
8EL	.
8Gn	.
8B-XJ)	.
(8G	.
[4B-)	.
=457	=457
(4B-]	f
8A	.
8GL	>
8F)	.
8A'J	.
=458	=458
(4.A	]
4G#X	p
[8Gn)	.
=459	=459
!LO:TX:b:i:t=cresc.	!
8G]	.
[4E	.
4E]	.
[8D-X	sf
=460	=460
!!linebreak:original
(4D-]	.
8C)	.
8r	.
8r	.
[8D-X	sf
=461	=461
(4D-]	.
8C)	.
8r	.
8r	f
[8C#X	.
=462	=462
4.C#_	.
(8C#L]	>
8E	.
8AJ)	.
=463	=463
4A	]
[8A	p
4A]	.
[8E	.
=464	=464
(4E]	.
8A	.
8G#XL	.
8A)	.
8E'J	.
=465	=465
(4E	.
8A)	.
(16G#XLL	.
16A)	.
(16D	.
16E)	.
(16F	.
16EJJ)	.
=466	=466
(4E	.
8A)	.
(16G#XLL	.
16A)	.
(16G#	.
16AJ)	.
8EJ	.
=467	=467
!!linebreak:original
(4E	.
8A)	.
(16G#XLL	.
16A)	.
(16D	.
16E)	.
(16F	.
16EJJ)	.
=468	=468
!LO:TX:b:i:t=dim.	!
(4E	.
16FLL	.
16EJJ)	.
(4E	.
16FLL	.
16EJJ)	.
=469	=469
(4E	.
16FLL	.
16EJJ)	.
(4E	.
16FLL	.
16EJJ)	.
=470	=470
[2.E	pp
=471	=471
2.E_	.
=472	=472
!LO:TX:b:i:t=cresc.	!
2.E_	.
=473	=473
4.E]	.
[4.E	.
=474	=474
4.E]	.
!LO:TX:b:i:t=dim.	!
[4.E	.
=475	=475
4.E]	.
[4.E	pp
=476	=476
4E]	.
8r	.
!LO:TX:a:t=pizz.	!
4A	.
8r	.
=477	=477
4A	.
8r	.
4r	.
8r	.
==478	==478
!!linebreak:original
*k[]	*
*C:	*
*M3/4	*
!LO:TX:a:B:t=Menuetto Grazioso	!
(2e	.
16fLL	p
16e	.
16d	.
16cJJ)	.
=479	=479
(2B	.
4c)	.
=480	=480
(2c	.
4d)	.
=481	=481
4d	.
4c	.
(12BL	.
12d)	.
12g'J	.
=482	=482
(2e	.
16fLL	.
16e	.
16d	.
16cJJ)	.
=483	=483
(2B	.
4c)	.
=484	=484
(4c	.
4.d	.
16cLL	.
16dJJ)	.
=485	=485
!!linebreak:original
(4e	.
4f	.
4e)	.
=486	=486
(2E	.
!LO:TX:a:i:t=sul una corda.	!
16FLL	.
16E	.
16D	.
16CJJ)	.
=487	=487
(2D	.
4C)	.
=488	=488
(2C	.
4D)	.
=489	=489
4D	.
[4D	.
12DL]	.
(12D	.
12FJ)	.
=490	=490
(2E	.
16FLL	.
16E	.
16D	.
16CJJ)	.
=491	=491
(2D	.
4C)	.
=492	=492
4C	.
(4.D	.
16CLL	.
16DJJ)	.
=493	=493
(4E	.
4F	.
4E)	.
=494!|:	=494!|:
!!linebreak:original
4r	.
!LO:TX:b:i:t=cresc.	!
2B	.
=495	=495
4r	.
2c	.
=496	=496
4r	.
4d	.
[4c	.
=497	=497
4c]	.
4B	.
4r	f
=498	=498
4r	.
4r	.
(16ALL	p
16G	.
16F	.
16EJJ)	.
=499	=499
2.r	.
=500	=500
4r	.
[2G	p
=501	=501
4G]	.
(16F#XLL	.
16G	.
16A	.
16BJJ	.
8cL	.
[8GJ)	.
=502	=502
(8GL]	.
8AJ	.
8BL	.
8G	.
8c	.
8AJ)	.
=503	=503
!!linebreak:original
4.c	.
(>8BL	.
8c	.
8dJ)	.
=504	=504
4e	.
(4e	.
16fLL	.
16e	.
16d	.
16cJJ)	.
=505	=505
4B	.
(<4B	.
4c)	.
=506	=506
!LO:TX:b:i:t=cresc.	!
(<8cL	.
8A	.
8d	.
8A	.
8B	.
8dJ)	.
=507	=507
(8eL	.
8B	.
8e	.
8c	.
8e	.
[8fJ)	.
=508	=508
8fL]	.
(8d	.
8g	.
8d)	f
8e	.
8eJ	.
=509	=509
(8fL	p
16cL	.
16dJJ)	.
8e	.
4g	.
8g	.
=510	=510
!!linebreak:original
!LO:TX:b:i:t=cresc.	!
4g	.
(16gLL	.
16a	.
16b	.
16ccJJ	.
4dd)	.
=511	=511
2dd	.
[4G	.
=512	=512
8GL]	.
8GJ	.
(16dLL	.
16c	.
16B	.
16AJJ	.
16GLL	.
16A	.
16B	.
16cJJ)	.
=513	=513
[2.d	f
=514	=514
4d]	.
!LO:TX:b:i:t=dim.	!
[2G	.
=515	=515
8GL]	.
(16GL	p
16AJJ	.
16GLL	.
16A	.
16G	.
16AJJ	.
4G)	.
=516:|!|:	=516:|!|:
!!linebreak:original
*k[b-]	*
*F:	*
!LO:TX:a:B:t=Trio	!
4A	f
4r	.
4r	.
=517	=517
4r	.
8r	.
8c'L	.
8A'	.
8F'J	.
=518	=518
4.C	.
8A'L	fp
8G'	.
8B-'J	.
=519	=519
(8AL	f
16GL	.
16AJJ)	.
8F	.
8A'L	.
8G'	p
8B-'J	.
=520	=520
(8AL	f
16GL	.
16AJJ)	.
8F'	.
8c'L	.
8c'	p
8F'J 8G	.
=521	=521
4E 4G	.
4r	.
4r	.
=522	=522
4E 4G	.
4r	.
4r	.
=523	=523
4E 4G	.
4r	.
4r	.
=524	=524
!!linebreak:original
8r	.
8EL 8G	.
8E 8G	.
8E 8G	.
8Bn	.
8BJ	.
=525	=525
(16CLL	.
16D	.
16E	.
16FJJ	.
16GLL	.
16A	.
!LO:TX:b:i:t=cresc.	!
16G	.
16FJJ	.
16ELL	.
16G	.
16A	.
16BnJJ)	.
=526	=526
(<16cLL	.
16Bn	.
16c	.
16AJJ	.
16GLL	.
16B	.
16c	.
16dJJ	.
16eLL	.
16f	.
16e	.
16dJJ)	.
=527	=527
(>16cLL	.
16d	.
16e	.
16fJJ	.
16gLL	.
16a	.
16g	.
16fJJ	.
16eLL	.
16c	.
16Bn	.
16AJJ)	.
=528	=528
(16GLL	.
16F	.
16E	.
16DJJ)	.
(16CLL	.
16G	.
16E	sf
16CJJ)	.
(16DLL	.
16G	.
16F	.
16DJJ)	.
=529	=529
!!linebreak:original
(16GLL	.
16F	.
16E	.
16DJJ)	.
(16CLL	.
16G	.
16E	sf
16CJJ)	.
(16DLL	.
16G	.
16F	.
16DJJ)	.
=530	=530
(16GLL	f
16F	.
16E	.
16DJJ)	.
(16CLL	.
16G	.
16E	.
16CJJ)	.
(16DLL	.
16G	.
16F	.
16DJJ)	.
=531	=531
8C'L	.
8d'J	sf
8r	.
8B-'L	p
8G'	.
8c'J	.
=532:|!	=532:|!
*^	*
8C'L	2ryy	f
8c'J	.	.
8r	.	.
8B-	.	.
(8.B-TL	1024%51B-yy	.
.	32cLLLyy	.
.	32B-yy	.
.	32cyy	.
.	32B-JJJyy	.
.	1024ryy	.
.	128.ryy	.
32ALL	16ryy	.
32B-JJJ)	.	.
*v	*v	*
=533!|:	=533!|:
!!linebreak:original
4A	f
4r	.
4r	.
=534	=534
2.r	.
=535	=535
4r	.
8r	.
8F'L	.
8E'	f
8G'J	.
=536	=536
(8FL	.
16EL	.
16FJJ)	.
8D'	.
8d'L	p
8d'	.
8d'J	.
=537	=537
4.e	.
8G'L	f
8F'	.
8A'J	.
=538	=538
(8GL	.
16FL	.
16GJJ)	.
8E'	.
8e'L	p
8e'	.
8e'J	.
=539	=539
4f	.
8r	.
8A'L	f
8G'	.
8B-'J	.
=540	=540
(8AL	.
16GL	.
16AJJ)	.
8F'	.
8f'L	p
8e'	.
8g'J	.
=541	=541
!!linebreak:original
4f	.
8r	.
8F'L	.
8E'	.
8G'J	.
=542	=542
(<16FLL	.
16G	.
16A	.
16B-JJ	.
16cLL	.
16d	.
16c	.
16B-JJ	.
16ALL	.
16c	.
16d	.
16eJJ)	.
=543	=543
(16fLL	.
16e	.
16f	.
16dJJ	.
16cLL	.
16e	.
16f	.
16gJJ	.
16aLL	.
16b-	.
16a	.
16gJJ)	.
=544	=544
(16fLL	.
16g	.
16a	.
16b-JJ	.
16ccLL	.
16dd	.
16cc	.
16b-JJ	.
16aLL	.
16f	.
16e	.
16dJJ)	.
=545	=545
(16cLL	.
16B-	.
16A	.
16GJJ	.
16FLL	.
16c	.
16A	.
16FJJ	.
16GLL	.
16c	.
16B-	.
16GJJ)	.
=546	=546
!!linebreak:original
!LO:TX:b:i:t=cresc.	!
(<16FLL	.
16G	.
16A	.
16B-JJ	.
16cLL	.
16d	.
16c	.
16B-JJ	.
16ALL	.
16c	.
16d	.
16eJJ)	.
=547	=547
(16fLL	.
16e	.
16f	.
16dJJ	.
16cLL	.
16e	.
16f	.
16gJJ	.
16aLL	.
16b-	.
16a	.
16gJJ)	.
=548	=548
(16fLL	.
16g	.
16a	.
16b-JJ	.
16ccLL	.
16dd	.
16cc	.
16b-JJ	.
16aLL	.
16f	.
16e	.
16dJJ)	.
=549	=549
(16cLL	.
16B-	.
16A	.
16GJJ)	.
(16FLL	.
16c	.
16A	sf
16FJJ)	.
(16GLL	.
16c	.
16B-	.
16GJJ)	.
=550	=550
!!linebreak:original
(16cLL	.
16B-	.
16A	.
16GJJ)	.
(16FLL	.
16c	.
16A	sf
16FJJ)	.
(16GLL	.
16c	.
16B-	.
16GJJ)	.
=551	=551
(16cLL	f
16B-	.
16A	.
16GJJ)	.
(16FLL	.
16c	.
16A	.
16FJJ)	.
(16GLL	.
16c	.
16B-	.
16GJJ)	.
=552	=552
*^	*
8F'L	2ryy	.
8F'J	.	.
8r	.	.
8F	.	.
(8.GTL	1024%51Gyy	.
.	32ALLLyy	.
.	32Gyy	.
.	32Ayy	.
.	32GJJJyy	.
.	1024ryy	.
.	128.ryy	.
32FLL	16ryy	.
32GJJJ)	.	.
*v	*v	*
=553:|!	=553:|!
8FL	.
8FJ	sf
8r	.
8F'L	p
8D'	.
8F'J	.
=554	=554
4G	.
4r	.
4r	.
=555	=555
!LO:TX:a:B:t=Menuetto da Capo	!
2.f	.
=556||	=556||
!!linebreak:original
*k[]	*
*C:	*
4r	.
4e-X	pp
4e-	.
=557	=557
!LO:TX:a:B:t=Coda	!
4c	.
4f	.
[4f	.
=558	=558
4f]	.
4f	.
[4A-X	.
=559	=559
!LO:TX:b:i:t=cresc.	!
(4A-]	.
16GLL	.
16F	.
16E-X	.
16DJJ)	.
4r	.
=560	=560
4B-X	pp
4b-X	.
4b-	.
=561	=561
4cc	.
4cc	.
[4cc	.
=562	=562
4cc]	.
4cc	.
4cc	.
=563	=563
4b	.
4r	.
4r	.
=564	=564
4r	.
4A-X	.
[4A-	.
=565	=565
!!linebreak:original
4A-]	.
4r	.
(4A-X	f
=566	=566
2G)	p
!LO:TX:b:i:t=cresc.	!
(16CLL	.
16D	.
16E-X	.
16FJJ)	.
=567	=567
[2.G	sf
=568	=568
4G_	p
16GLL]	.
!LO:TX:b:i:t=cresc.	!
(16F	.
16E-X	.
16DJJ	.
16CLL	.
16D	.
16E-X	.
16FJJ)	.
=569	=569
[2.G	sf
=570	=570
(2G]	p
!LO:TX:b:i:t=dim.	!
4C	.
=571	=571
4E-X	.
4D	.
4G)	pp
=572	=572
!LO:TX:b:i:t=cresc.	!
[2G	.
8GL]	f
(16aL	.
16gJJ	>
=573	=573
16fLL	.
16en	.
16d	.
16cJJ)	.
4B;	.
4r	]
==574	==574
!!linebreak:original
*M2/2	*
*met(c|)	*
!LO:TX:a:B:t=Allegro molto.	!
[2g	p
8gL]	.
8g	.
8a	.
8gJ	.
=575	=575
8fL	.
8eJ	.
4d	.
8r	.
8fL	.
8g	.
8fJ	.
=576	=576
8eL	.
8dJ	.
4c	.
8r	.
8gL	.
8a	.
8gJ	.
=577	=577
8fL	.
8e	.
8d	.
8eJ	.
8fL	.
8d	.
8g	.
8fJ	.
=578	=578
8eL	.
8d	.
8c	.
8dJ	.
8eL	.
8f	.
8g	.
8eJ	.
=579	=579
8aL	.
8g	.
8f	.
8aJ	.
8bL	.
8a	.
8g	.
8bJ	.
=580	=580
!!linebreak:original
8ccL	.
8dd	.
8ee	.
8ccJ	.
8gL	.
8f	.
8e	.
8gJ	.
=581	=581
8aL	.
8g	.
8f	.
8aJ	.
8bL	.
8a	.
8g	.
8bJ	.
=582	=582
8ccL	.
8cc	.
8dd	.
8ccJ	.
8aL	.
8a	.
8b	.
8aJ	.
=583	=583
8f#XL	.
8f#	.
8g	.
8f#J	.
8dL	.
8d	.
8e	.
8dJ	.
=584	=584
8gL	.
8d	.
8e	.
8f#XJ	.
8gL	.
8f#	.
8g	.
8g#XJ	.
=585	=585
8aL	.
8gn	.
8f#X	.
8eJ	.
8f#L	.
8d	.
8e	.
8f#J	.
=586	=586
8gL	.
!LO:TX:b:i:t=crescendo poco a poco	!
8d	.
8e	.
8f#XJ	.
8gL	.
8f#	.
8g	.
8g#XJ	.
=587	=587
!!linebreak:original
8aL	.
8gn	.
8f#X	.
8eJ	.
8dL	.
8c	.
8B	.
8AJ	.
=588	=588
4G'	.
4d'	.
4B'	.
4G'	.
=589	=589
4c'	.
4A'	.
4d'	.
4B'	.
=590	=590
4B'	.
4d'	.
4B'	.
4G'	.
=591	=591
4c'	.
4G'	.
4c#X'	.
4G'	.
=592	=592
4d'	.
4G'	.
4f'	.
4G'	.
=593	=593
4g'	.
4G'	.
4f'	.
4G'	.
=594	=594
8eL	.
8d	.
8e	.
8fJ	.
8gL	.
8c#X	.
8d	.
8eJ	.
=595	=595
!!linebreak:original
8fL	.
!LO:TX:b:i:t=sempre piu crescendo	!
8g	.
8a	.
8fJ	.
8dL	.
8B	.
8cn	.
8dJ	.
=596	=596
8eL	.
8f	.
8g	.
8gJ	.
8gL	.
8A	.
8B	.
8c#XJ	.
=597	=597
8dL	.
8e	.
8f	.
8eJ	.
8dL	.
8G	.
8A	.
8BJ	.
=598	=598
4cn'	.
4e'	.
4g'	.
4c'	.
=599	=599
4c'	.
4f'	.
4f'	.
4f'	.
=600	=600
4e'	.
4e'	.
4b-X'	.
4b-'	.
=601	=601
4a'	.
4cc'	.
4g'	.
4dd'	.
=602	=602
4g'	.
4dd'	.
4a'	.
4cc'	.
=603	=603
4cc'	.
4c'	.
4B'	.
4b'	.
=604	=604
!!linebreak:original
8eL	f
8G	.
8A	.
8BJ	.
8cL	.
8B	.
8c	.
8c#XJ	.
=605	=605
8dL	.
8e	.
8f	.
8dJ	.
8BL	.
8d	.
8G	.
8BJ	.
=606	=606
8cnL	.
8B	.
8c	.
8dJ	.
8eL	.
8d	.
8c	.
8c#XJ	.
=607	=607
8dL	.
8A	.
8B	.
8c#XJ	.
8dL	.
8cn	.
8B	.
8GJ	.
=608	=608
4c'	.
4G'	.
4C'	.
4B-X'	.
=609	=609
4F	.
4A	.
4D	.
4G	.
=610	=610
4E	.
4G	.
4C	.
4B-X	.
=611	=611
4F	.
4A	.
4D	.
4G	.
=612	=612
2A'	.
2Bn'	.
=613	=613
!!linebreak:original
2c'	.
2d'	.
=614	=614
2e'	.
2f'	.
=615	=615
2g'	.
2g#X'	.
=616	=616
2a'	.
2d'	.
=617	=617
!LO:TX:b:i:t=piu	!
2gn'	.
2f'	f
=618	=618
4c	.
4cc	.
4r	.
4a	.
=619	=619
4r	.
4g	.
4r	.
4B	.
=620	=620
4c	ff
4r	.
4e	.
4r	.
=621	=621
4e	.
4r	.
4e	.
4r	.
=622	=622
(8fL	.
8d)	sf
8f'	.
8f'J	.
(8fL	.
8d)	.
8f'	.
8f'J	.
=623	=623
(8fL	.
8d)	.
8f'	.
8f'J	.
(8fL	.
8d)	.
8f'	.
8f'J	.
=624	=624
!!linebreak:original
4e	.
4r	.
4e	.
4r	.
=625	=625
4e	.
4r	.
4e	.
4r	.
=626	=626
(8eL	sf
8c#X)	.
8e'	.
8e'J	.
(8eL	.
8c#)	.
8e'	.
8e'J	.
=627	=627
(8eL	.
8c#X)	.
8e'	.
8e'J	.
(8eL	.
8c#)	.
8e'	.
8e'J	.
=628	=628
4e	.
4r	.
(8dL	.
8A)	.
8d'	.
8d'J	.
=629	=629
4d	.
4r	.
(8cnL	.
8G)	.
8c'	.
8c'J	.
=630	=630
4r	.
4c	.
4r	.
4e	.
=631	=631
4r	.
4e	.
4r	.
4e	.
=632	=632
4r	.
4e-X	.
4r	.
4d	.
=633	=633
4d	.
4r	f
2r	.
=634	=634
!!linebreak:original
1r	.
=635	=635
1r	.
=636	=636
1r	.
=637	=637
2r	.
8cL	.
8B	p
8A	.
8F#XJ	.
=638	=638
1r	.
=639	=639
1r	.
=640	=640
8DL	.
8E	.
8F	.
8F#XJ	.
4G	.
4G	.
=641	=641
2r	.
8cL	.
8B	.
8A	.
8F#XJ	.
=642	=642
1r	.
=643	=643
1r	.
=644	=644
8DL	.
8E	.
8F	.
8F#XJ	.
4G	.
4G	.
=645	=645
8EL	.
8F#X	<
8G	.
8G#XJ	.
[2A	.
=646	=646
4A]	.
(4f#X	[
4d)	>
4d	.
=647	=647
!!linebreak:original
8EL	]
!LO:TX:b:i:t=cresc.	!
8F#X	.
8Gn	.
8G#XJ	.
[2A	.
=648	=648
8AL]	.
8F#X	.
8Gn	.
8AJ	.
[2B	.
=649	=649
8BL]	.
8G	.
8A	.
8BJ	.
[2c	.
=650	=650
8cL]	.
8A	.
8B	.
8cJ	.
2d	.
=651	=651
4B	f
4r	.
4c	.
4r	.
=652	=652
4B	.
4r	.
8AL	.
8c	.
8c	.
8cJ	.
=653	=653
4B	.
4r	.
4c	.
4r	.
=654	=654
1r	.
=655	=655
!!linebreak:original
8dL	p
8d	.
8c	.
8cJ	.
8dL	.
8d	.
8c	.
8cJ	.
=656	=656
8dL	.
8d	.
8c	.
8cJ	.
8dL	.
8d	.
8c	.
8cJ	.
=657	=657
!LO:TX:b:i:t=cresc.	!
8BL	.
8d	.
8d	.
8dJ	sf
8dL	.
8d	.
8d	.
8dJ	.
=658	=658
4B	.
4r	p
2r	.
=659	=659
8dL	.
8d	.
8c	.
8cJ	.
8GL 8d	.
8G 8d	.
8c	.
8cJ	.
=660	=660
8dL	.
8d	.
8c	.
8cJ	.
8GL 8d	.
8G 8d	.
8c	.
8cJ	.
=661	=661
8dL	.
!LO:TX:b:i:t=cresc.	!
8d	.
8d	.
8dJ	.
8dL	.
8d	.
8d	.
8dJ	.
=662	=662
8dL	.
8d	.
8d	.
8dJ	.
8dL	.
8d	.
8d	.
8dJ	.
=663	=663
!!linebreak:original
8e-XL	.
8e-	.
8e-	.
8e-J	.
8e-L	.
8e-	.
8e-	.
8e-J	.
=664	=664
4d	ff
4r	.
2r	.
=665	=665
2r	.
8r	.
8EnL	p
8D	.
8EJ	.
=666	=666
8FL	.
8GJ	.
4A-X	.
8r	.
8DL	.
8C	.
8DJ	.
=667	=667
8E-XL	.
8FJ	.
4G	.
8r	.
8gL	.
8f	.
8gJ	.
=668	=668
8a-XL	.
8b-XJ	.
4cc	.
8r	.
8fL	.
8e-X	.
8fJ	.
=669	=669
4g	.
4r	.
2r	.
=670	=670
2r	.
4r	.
4f	.
=671	=671
!!linebreak:original
!LO:TX:b:i:t=cresc.	!
8B-XL	.
8A-X	.
8G	.
8FJ	.
8GL	.
8A-	.
8B-	.
8GJ	.
=672	=672
8d-XL	.
8c	.
8B-X	.
8d-J	.
8eL	.
8dn	.
8c	.
8eJ	.
=673	=673
2.c 2.f	f
4c 4f	.
=674	=674
2.c 2.e	.
4c 4g	.
=675	=675
2c 2f	.
8r	.
8A-XL	p
8B-X	.
8A-XJ	.
=676	=676
8GL	.
8FJ	.
4E	.
8r	.
8GL	.
8A-X	.
8GJ	.
=677	=677
4F 4A-X	.
4r	.
2r	.
=678	=678
2r	.
4r	.
!LO:TX:b:i:t=cresc.	!
4G	.
=679	=679
!!linebreak:original
8FL	.
8E-X	.
8D-X	.
8CJ	.
8D-L	.
8E-	.
8F	.
8D-J	.
=680	=680
8B-XL	.
8A-X	.
8G-X	.
8B-XJ	.
8cL	.
8B-	.
8A-	.
8cJ	.
=681	=681
4d-X	f
4r	.
[2a-X	.
=682	=682
8a-L]	.
8a-X	.
8b-X	.
8a-J	.
8g-XL	.
8fJ	.
4e-X	.
=683	=683
8r	.
8g-XL	.
8a-X	.
8g-J	.
4f-X	.
4r	.
=684	=684
8r	.
8g#XL	p
8an	.
8g#J	.
8f#XL	.
8enJ	.
4d#X	.
=685	=685
4e	f
4r	.
4E	.
4r	.
=686	=686
!!linebreak:original
4E	.
4r	.
4E	.
4r	.
=687	=687
(8AL	.
8F#X)	.
8A'	.
8A'J	.
(8AL	.
8F#)	.
8A'	.
8A'J	.
=688	=688
(8AL	.
8F#X)	.
8A'	.
8A'J	.
(8G#XL	.
8F#)	.
8G#'	.
8G#'J	.
=689	=689
(8G#XL	.
8e)	.
8g#X'	.
8g#'J	.
(8g#L	.
8e)	.
8g#'	.
8g#'J	.
=690	=690
(8g#XL	.
8e)	.
8g#'	.
8g#'J	.
(8g#L	.
8e)	.
8g#'	.
8g#'J	.
=691	=691
[1a	sf
=692	=692
(2a]	.
2g#X)	.
=693	=693
!!linebreak:original
4g#X	.
4C#X	.
4C#	.
4C#	.
=694	=694
4C#X	.
4C#	.
4C#	.
4C#	.
=695	=695
4C#X	.
4C#	.
4C#	.
4C#	.
=696	=696
4C#X	.
4C#	.
4BB#X	.
4BB#	.
=697	=697
8C#XL	.
8C#	.
8C#	.
8C#J	.
8C#L	.
8C#	.
8C#	.
8C#J	.
=698	=698
8C#XL	.
8C#	.
8C#	.
8C#J	.
8C#L	.
8C#	.
8C#	.
8C#J	.
=699	=699
8C#XL	.
8C#	.
8C#	.
8C#J	.
8G#XL	.
8G#	.
8G#	.
8G#J	.
=700	=700
!!linebreak:original
8G#XL	.
8G#	.
8G#	.
8G#J	.
8F#XL	.
8F#	.
8F#	.
8F#J	.
=701	=701
4G#X	.
4r	.
4c#X	.
4r	.
=702	=702
4c#X	.
4r	.
4c#	.
4r	.
=703	=703
(8eL	.
8c#X)	.
8e'	.
8e'J	.
(8eL	.
8c#)	.
8e'	.
8e'J	.
=704	=704
(8eL	.
8c#X)	.
8e'	.
8e'J	.
(8eL	.
8c#)	.
8e'	.
8e'J	.
=705	=705
4e	.
4r	.
4c#X 4e	.
4r	.
=706	=706
4A 4e	.
4r	.
4A 4e	.
4r	.
=707	=707
(8eL	.
8A)	.
8e'	.
8e'J	.
(8eL	.
8A)	.
8e'	.
8e'J	.
=708	=708
!!linebreak:original
(8eL	.
8A)	.
8e'	.
8e'J	.
(8eL	.
8A)	.
8e'	.
8e'J	.
=709	=709
4d	.
4r	.
8r	.
8AL	.
8B-X	.
8AJ	.
=710	=710
4B-X	.
4B-	.
8r	.
8c#XL	.
8d	.
8c#J	.
=711	=711
4d	.
4d	.
2A	.
=712	=712
2B-X	.
2c#X	.
=713	=713
4d	.
4r	.
2r	.
=714	=714
1r	.
=715	=715
!!pagebreak:original
2r	.
2F	.
=716	=716
2E	.
2A	.
=717	=717
4A	.
4d	p
4r	.
4d	.
=718	=718
4r	.
4d	.
4r	.
4d	.
=719	=719
4r	.
4dd	.
4r	.
4dd	.
=720	=720
4r	.
4dd	.
4r	.
4dd	.
=721	=721
[1e-X	f
=722	=722
(2e-]	>
2cc	.
=723	=723
4ee-X)	]
4e-X	p
4r	.
4c	.
=724	=724
4r	.
4F	.
4r	.
4F	.
=725	=725
!!linebreak:original
4B-X	.
4b-X	.
4r	.
4b-	.
=726	=726
4r	.
4b-X	.
4r	.
4b-	.
=727	=727
4r	.
4b-X	.
4r	.
4B-X	.
=728	=728
4r	.
4B-X	.
4r	.
4B-	.
=729	=729
[1f	f
=730	=730
1f_	.
=731	=731
4f]	p
4f	.
4r	.
4f	.
=732	=732
4r	.
4e	.
4r	.
4c	.
=733	=733
!!linebreak:original
8EL	.
!LO:TX:a:i:t=sul una corda.	!
8E	.
8F	.
8EJ	.
8CL	.
8C	.
8D	.
8CJ	.
=734	=734
8DL	.
8D	.
8E	.
8DJ	.
8EL	.
8E	.
8F	.
8EJ	.
=735	=735
8FL	.
!LO:TX:b:i:t=cresc.	!
8F	.
8G	.
8FJ	.
8GL	.
8G	.
8A-X	.
8GJ	.
=736	=736
8A-XL	.
8A-	.
8B-X	.
8A-J	.
8B-L	.
8B-	.
8c	.
8B-J	.
=737	=737
8cL	.
8c	f
8d-X	.
8cJ	.
8B-XL	.
8B-	.
8c	.
8B-J	.
=738	=738
!!linebreak:original
8A-XL	.
8A-	.
8B-X	.
8A-J	.
8GL	.
8G	.
8A-	.
8GJ	.
=739	=739
8FL	p
8F	.
8G	.
8FJ	.
8A-XL	.
8A-	.
8B-X	.
8A-J	.
=740	=740
8GL	.
8G	.
8A-X	.
8GJ	.
8DL	.
8D	.
8E-X	.
8DJ	.
=741	=741
4E-X	.
4c	.
4r	.
4c	.
=742	=742
4r	.
4c	.
4r	.
4c	.
=743	=743
4r	.
4c	.
4r	.
4c	.
=744	=744
4r	.
4c	.
4r	.
4c	.
=745	=745
!!linebreak:original
[1c	f
=746	=746
1c_	.
=747	=747
4c]	.
4c	p
4r	.
4g	.
=748	=748
4r	.
4g	.
4r	.
4g	.
=749	=749
1a	ff
=750	=750
1c 1d	sf
=751	=751
1c 1d	.
=752	=752
1c 1d	sf
=753	=753
1G	.
=754	=754
1F 1G	.
=755	=755
1F 1G	.
=756	=756
1F 1G	.
=757	=757
!!linebreak:original
[2E [2G	.
8E] 8G]	.
8ccL	.
8dd-X	.
8ccJ	.
=758	=758
8b-XL	.
8a-XJ	.
4g	.
8r	.
8ccL	.
8dd-X	.
8ccJ	.
=759	=759
8b-XL	.
8a-XJ	.
4g	.
8r	.
8ccL	.
8dd-X	.
8ccJ	.
=760	=760
8b-XL	.
8a-X	.
8g	.
8a-J	.
8b-XL	.
8g	.
8cc	.
8ccJ	.
=761	=761
8a-XL	.
8g	sf
8f	.
8gJ	.
8a-L	.
8cc	.
8ddn	.
8ccJ	.
=762	=762
!!linebreak:original
8gL	sf
8f	.
8e-X	.
8fJ	.
8gL	.
8cc	.
8dd	.
8ccJ	.
=763	=763
8fL	.
8e-X	sf
8d	.
8e-J	.
8fL	.
8cc	.
8dd	.
8ccJ	.
=764	=764
8e-XL	sf
8d	.
8c	.
8dJ	.
4e-	.
!LO:TX:b:i:t=sempre	!
4r	.
=765	=765
2.A-X	ff
4A-	.
=766	=766
2.G	.
4G	.
=767	=767
2.F	.
4F	.
=768	=768
[2E-X	.
8E-]	.
8cL	.
8d	.
8cJ	.
=769	=769
8BL	.
8AJ	.
4G	.
4r	.
4B	.
=770	=770
!!linebreak:original
[2c	.
8c]	.
8cL	.
8d	.
8cJ	.
=771	=771
8BL	.
8AJ	.
4G	.
4r	.
4B	.
=772	=772
2.c	.
8cL	.
8B-XJ	.
=773	=773
8A-XL	.
8G	.
8F	.
8GJ	.
8A-L	.
8G	.
8F	.
8E-XJ	.
=774	=774
4D	.
8fL	.
8e-XJ	.
8dL	.
8e-	.
8d	.
8cJ	.
=775	=775
8BL	.
8c	.
8d	.
8cJ	.
8BL	.
8c	.
8B	.
8A-XJ	.
=776	=776
8GL	.
8d	.
8d	.
8dJ	.
8dL	.
8d	.
8d	.
8dJ	.
=777	=777
!!linebreak:original
8dL	.
8f	.
8f	.
8fJ	.
8fL	.
8f	.
8f	.
8fJ	.
=778	=778
8fL	.
8b	.
8b	.
8bJ	.
8bL	.
8d	.
8d	.
8dJ	.
=779	=779
8dL	.
8B	.
8B	.
8BJ	.
8BL	.
8d	.
8d	.
8dJ	.
=780	=780
1G; 1d	.
=781	=781
[1g	ff
=782	=782
1g]	>
=783	=783
[2g	]
8gL]	p
8g	.
8a	.
8gJ	.
=784	=784
!!linebreak:original
8fL	.
8eJ	.
4d	.
8r	.
8fL	.
8g	.
8fJ	.
=785	=785
8eL	.
8dJ	.
4c	.
8r	.
8gL	.
8a	.
8gJ	.
=786	=786
8fL	.
8e	.
8d	.
8eJ	.
8fL	.
8d	.
8g	.
8fJ	.
=787	=787
8eL	.
8d	.
8c	.
8dJ	.
8eL	.
8f	.
8g	.
8eJ	.
=788	=788
8aL	.
8g	.
8f	.
8aJ	.
8bL	.
8a	.
8g	.
8bJ	.
=789	=789
8ccL	.
8dd	.
8ee	.
8ccJ	.
8gL	.
8f	.
8e	.
8gJ	.
=790	=790
!!linebreak:original
8aL	.
8g	.
8f	.
8aJ	.
8bL	.
8a	.
8g	.
8bJ	.
=791	=791
8ccL	.
8cc	.
8dd	.
8ccJ	.
8aL	.
8a	.
8b	.
8aJ	.
=792	=792
8f#XL	.
8f#	.
8g	.
8f#J	.
8dL	.
8d	.
8e	.
8dJ	.
=793	=793
4g	.
4r	p
2B'	.
=794	=794
2c'	.
2F#X'	.
=795	=795
2B	.
2B	.
=796	=796
2c'	.
2F#X'	.
=797	=797
2B'	.
2A-X'	.
=798	=798
!!linebreak:original
2G'	.
2c'	.
=799	=799
2B'	.
2a-X'	.
=800	=800
2g'	.
2b-X'	.
=801	=801
2an'	.
2A'	.
=802	=802
2F'	.
2F'	.
=803	=803
4E	.
4r	.
2r	.
=804	=804
1r	.
=805	=805
1r	.
=806	=806
1r	.
=807	=807
1r	.
=808	=808
1r	.
=809	=809
1r	.
=810	=810
1r	.
=811	=811
!!pagebreak:original
2r	.
!LO:TX:b:i:t=cresc.	!
2f'	.
=812	=812
2a-X'	.
2g'	.
=813	=813
2c'	f
2B-X'	.
=814	=814
2An'	.
2Bn'	.
=815	=815
8cL	.
8c	.
8c	.
8cJ	.
8B-XL	.
8B-	.
8B-	.
8B-J	.
=816	=816
8AL	.
8A	.
8A	.
8AJ	.
8BnL	.
8B	.
8B	.
8BJ	.
=817	=817
!!linebreak:original
8cL	.
8c	.
8c	.
8cJ	.
8cL	.
8c	.
8c	.
8cJ	.
=818	=818
8cL	.
8c	.
8c	.
8cJ	.
8GL	.
8G	.
8G	.
8GJ	.
=819	=819
8GL	.
8c	.
8c	.
8cJ	.
8cL	.
8c	.
8c	.
8cJ	.
=820	=820
8cL	.
8c	.
8c	.
8cJ	.
8GL	.
8G	.
8G	.
8GJ	.
=821	=821
8GL	.
8g	.
8g	.
8gJ	.
8gL	.
8g	.
8g	.
8gJ	.
=822	=822
8gL	.
8g	.
8g	.
8gJ	.
8gL	.
8g	.
8g	.
8gJ	.
=823	=823
!!linebreak:original
8gL	.
8g	.
8g	.
8gJ	.
8aL	.
8a	.
8a	.
8aJ	.
=824	=824
8gL	.
8g	.
8g	.
8gJ	.
8fL	.
8f	.
8f	.
8fJ	.
=825	=825
2e'	.
2g'	.
=826	=826
!LO:TX:b:i:t=piu	!
2g'	.
2b'	f
=827	=827
2cc'	.
8gL	.
8dd	.
8ee	.
8ddJ	.
=828	=828
8ccL	.
8g	.
8a	.
8gJ	.
8fL	.
8B	.
8A	.
8BJ	.
=829	=829
4c	ff
4r	.
4G 4e	.
4r	.
=830	=830
!!linebreak:original
4G 4e	.
4r	.
4G 4e	.
4r	.
=831	=831
(8fL	sf
8d)	.
8f'	.
8f'J	.
(8fL	.
8d)	.
8f'	.
8f'J	.
=832	=832
(8fL	.
8d)	.
8f'	.
8f'J	.
(8fL	.
8d)	.
8f'	.
8f'J	.
=833	=833
4G 4e	.
4r	.
4G 4e	.
4r	.
=834	=834
4G 4e	.
4r	.
4G 4e	.
4r	.
=835	=835
(8eL	sf
8c#X)	.
8e'	.
8e'J	.
(8eL	.
8c#)	.
8e'	.
8e'J	.
=836	=836
(8eL	.
8c#X)	.
8e'	.
8e'J	.
(8eL	.
8c#)	.
8e'	.
8e'J	.
=837	=837
!!linebreak:original
4e	.
4r	.
(>8dL	.
8A)	.
8d'	.
8d'J	.
=838	=838
4d	.
4r	.
(8cnL	.
8G)	.
8c'	.
8c'J	.
=839	=839
8eL	.
8e	.
8e	.
8eJ	.
(>8dL	.
8A)	.
8d'	.
8d'J	.
=840	=840
8dL	.
8d	.
8d	.
8dJ	.
(8cL	.
8G)	.
8c'	.
8c'J	.
=841	=841
4r	.
4c	.
4r	.
4e	.
=842	=842
4r	.
4e	.
4r	.
4e	.
=843	=843
4r	.
4A	.
4r	.
4A-X	.
=844	=844
4r	.
4G	.
4r	.
4G	.
=845	=845
!!linebreak:original
4G 4d	.
4r	sf
2r	.
=846	=846
1r	.
=847	=847
1r	.
=848	=848
1r	.
=849	=849
1r	.
=850	=850
2r	.
8AL	.
8G	p
8F	.
8DJ	.
=851	=851
1r	.
=852	=852
1r	.
=853	=853
8GL	.
8A	.
8B-X	.
8BnJ	.
4c	.
4c	.
=854	=854
2r	.
8AL	.
8G	.
8F	.
8DJ	.
=855	=855
1r	.
=856	=856
1r	.
=857	=857
8GL	.
8A	.
8B-X	.
8BnJ	.
4c	.
4c	.
=858	=858
!!linebreak:original
8AnL	.
8B	<
8c	.
8c#XJ	.
4d	.
(4a	.
=859	=859
4b)	.
(4b	>
4g)	.
4cn	.
=860	=860
!LO:TX:b:i:t=cresc.	!
8AL	]
8B	.
8c	.
8c#XJ	.
[2d	.
=861	=861
8dL]	.
8B	.
8cn	.
8dJ	.
[2e	.
=862	=862
8eL]	.
8c	.
8d	.
8eJ	.
[2f	.
=863	=863
8fL]	.
8d	.
8e	.
8fJ	.
4g	.
4f	.
=864	=864
4e	.
4r	f
4f	.
4r	.
=865	=865
4e	.
4r	.
4d 4f	.
4r	.
=866	=866
!!linebreak:original
4e	.
4r	.
4c 4f	.
4r	.
=867	=867
4c 4e	p
4r	.
2r	.
=868	=868
8GL	.
8G	.
8A	.
8AJ	.
8gL	.
8g	.
8f	.
8fJ	.
=869	=869
8GL	.
8G	.
8A	.
8AJ	.
8gL	.
8g	.
8f	.
8fJ	.
=870	=870
!LO:TX:b:i:t=cresc.	!
8eL	.
8G	.
8G	.
8GJ	sf
8GL	.
8G	.
8G	.
8GJ	.
=871	=871
4G	p
4r	.
2r	.
=872	=872
8GL	.
8G	.
8F	.
8FJ	.
8GL	.
8G	.
8F	.
8FJ	.
=873	=873
!!linebreak:original
8GL	.
8G	.
8F	.
8FJ	.
8GL	.
8G	.
8F	.
8FJ	.
=874	=874
8GL	.
!LO:TX:b:i:t=cresc.	!
8G	.
8G	.
8GJ	.
8GL	.
8G	.
8G	.
8GJ	.
=875	=875
8GL	.
8G	.
8G	.
8GJ	.
8GL	.
8G	.
8G	.
8GJ	.
=876	=876
8A-XL	.
8A-	.
8A-	.
8A-J	.
8A-L	.
8A-	.
8A-	.
8A-J	.
=877	=877
4G	ff
4r	.
2r	.
=878	=878
2r	.
8r	.
8AnL	p
8G	.
8AJ	.
=879	=879
!!linebreak:original
8B-XL	.
8cJ	.
4d-X	.
8r	.
8GL	.
8F	.
8GJ	.
=880	=880
8A-XL	.
8B-XJ	.
4c	.
8r	.
8ccL	.
8b-X	.
8ccJ	.
=881	=881
8dd-XL	.
8ee-XJ	.
4ff	.
8r	.
8b-XL	.
8a-X	.
8b-J	.
=882	=882
8ccL	.
8dd-XJ	.
4ee-X	.
2r	.
=883	=883
2r	.
4B-X	.
4r	.
=884	=884
4A-X	.
4r	.
8r	.
8cL	.
8d-X	.
8cJ	.
=885	=885
8B-XL	.
8A-X	.
8G	.
8B-J	.
8eL	.
8dn	.
8c	.
8eJ	.
=886	=886
!!linebreak:original
8fL	.
8g	.
8a-X	.
8fJ	.
4r	.
4F#X	.
=887	=887
4G	f
4r	.
4c	.
4r	.
=888	=888
4G	.
4r	.
2r	.
=889	=889
2r	.
(2A	.
=890	=890
4B)	.
4r	.
2r	.
=891	=891
2r	.
2A	.
=892	=892
!LO:TX:b:i:t=piu	!
8BL	.
8B	.
8B	f
8BJ	.
8BL	.
8B	.
8B	.
8BJ	.
=893	=893
8BL	.
8B	.
8B	.
8BJ	.
8BL	.
8B	.
8B	.
8BJ	.
=894	=894
8BL	.
8d	.
8d	.
8dJ	.
8dL	.
8d	.
8d	.
8dJ	.
=895	=895
!!linebreak:original
8dL	.
8d 8b	.
8d 8b	.
8dJ 8b	.
8dL 8b	.
8d 8b	.
8d 8b	.
8dJ 8b	.
=896	=896
4d 4b	.
4r	.
2r	.
=897	=897
1r	.
=898	=898
4c	.
4r	.
2r	.
=899	=899
1r	.
=900	=900
4B	.
4r	p
2r	.
=901	=901
1r	.
=902	=902
2c'	.
2c#X'	p
=903	=903
2d'	.
2G'	.
=904	=904
2cn'	.
2c#X'	.
=905	=905
2d'	.
2G'	.
=906	=906
!!linebreak:original
2e'	.
2e'	.
=907	=907
2f'	.
2d'	.
=908	=908
2e'	.
2e'	.
=909	=909
2f'	.
2g'	.
=910	=910
!LO:TX:b:i:t=cresc.	!
*^	*
[1gT	1536%109gyy	.
.	3072%95ayy	.
.	3072%95gyy	.
.	3072%95ayy	.
.	3072%95gyy	.
.	3072%95ayy	.
.	3072%95gyy	.
.	3072%95ayy	.
.	3072%95gyy	.
.	3072%95ayy	.
.	3072%95gyy	.
.	3072%95ayy	.
.	3072%95gyy	.
.	3072%95ayy	.
.	3072%95gyy	.
.	3072%95ayy	.
.	3072%95gyy	.
.	3072%95ayy	.
.	3072%95gyy	.
.	3072%95ayy	.
.	3072%95gyy	.
.	3072%95ayy	.
.	3072%95gyy	.
.	3072%95ayy	.
.	3072%95gyy	.
.	3072%95ayy	.
.	3072%95gyy	.
.	3072%95ayy	.
.	3072%95gyy	.
.	3072%95ayy	.
.	[[768%23gyy	.
=911	=911	=911
.	1%0g\]]	.
1g_	3072%95ayy	.
.	3072%95gyy	.
.	3072%95ayy	.
.	3072%95gyy	.
.	3072%95ayy	.
.	3072%95gyy	.
.	3072%95ayy	.
.	3072%95gyy	.
.	3072%95ayy	.
.	3072%95gyy	.
.	3072%95ayy	.
.	3072%95gyy	.
.	3072%95ayy	.
.	3072%95gyy	.
.	3072%95ayy	.
.	3072%95gyy	.
.	3072%95ayy	.
.	3072%95gyy	.
.	3072%95ayy	.
.	3072%95gyy	.
.	3072%95ayy	.
.	3072%95gyy	.
.	3072%95ayy	.
.	3072%95gyy	.
.	3072%95ayy	.
.	3072%95gyy	.
.	3072%95ayy	.
.	3072%95gyy	.
.	3072%95ayy	.
.	3072%95gyy	.
.	3072%95ayy	.
.	3072%95gyy	.
.	[[256..ayy	.
=912	=912	=912
.	1%0a\]]	.
[1g	3072%95gyy	.
.	3072%95ayy	.
.	3072%95gyy	.
.	3072%95ayy	.
.	3072%95gyy	.
.	3072%95ayy	.
.	3072%95gyy	.
.	3072%95ayy	.
.	3072%95gyy	.
.	3072%95ayy	.
.	3072%95gyy	.
.	3072%95ayy	.
.	3072%95gyy	.
.	3072%95ayy	.
.	3072%95gyy	.
.	3072%95ayy	.
.	3072%95gyy	.
.	3072%95ayy	.
.	3072%95gyy	.
.	3072%95ayy	.
.	3072%95gyy	.
.	3072%95ayy	.
.	3072%95gyy	.
.	3072%95ayy	.
.	3072%95gyy	.
.	3072%95ayy	.
.	3072%95gyy	.
.	3072%95ayy	.
.	3072%95gyy	.
.	3072%95ayy	.
.	3072%95gyy	.
.	[[128...ayy	.
=913	=913	=913
.	1%0a\]]	.
1g]	3072%95gyy	.
.	3072%95ayy	.
.	3072%95gyy	.
.	3072%95ayy	.
.	3072%95gyy	.
.	3072%95ayy	.
.	3072%95gyy	.
.	3072%95ayy	.
.	3072%95gyy	.
.	3072%95ayy	.
.	3072%95gyy	.
.	3072%95ayy	.
.	3072%95gyy	.
.	3072%95ayy	.
.	3072%95gyy	.
.	3072%95ayy	.
.	3072%95gyy	.
.	3072%95ayy	.
.	3072%95gyy	.
.	3072%95ayy	.
.	3072%95gyy	.
.	3072%95ayy	.
.	3072%95gyy	.
.	3072%95ayy	.
.	3072%95gyy	.
.	3072%95ayy	.
.	3072%95gyy	.
.	3072%95ayy	.
.	3072%95gyy	.
.	3072%95ayy	.
.	3072%95gyy	.
.	256..ryy	.
.	64ryy	.
=914	=914	=914
[1G	1536%109GTyy	.
.	3072%95Ayy	.
.	3072%95Gyy	.
.	3072%95Ayy	.
.	3072%95Gyy	.
.	3072%95Ayy	.
.	3072%95Gyy	.
.	3072%95Ayy	.
.	3072%95Gyy	.
.	3072%95Ayy	.
.	3072%95Gyy	.
.	3072%95Ayy	.
.	3072%95Gyy	.
.	3072%95Ayy	.
.	3072%95Gyy	.
.	3072%95Ayy	.
.	3072%95Gyy	.
.	3072%95Ayy	.
.	3072%95Gyy	.
.	3072%95Ayy	.
.	3072%95Gyy	.
.	3072%95Ayy	.
.	3072%95Gyy	.
.	3072%95Ayy	.
.	3072%95Gyy	.
.	3072%95Ayy	.
.	3072%95Gyy	.
.	3072%95Ayy	.
.	3072%95Gyy	.
.	3072%95Ayy	.
.	[[768%23Gyy	.
=915	=915	=915
.	1%0G/]]	.
1G_	3072%95Ayy	.
.	3072%95Gyy	.
.	3072%95Ayy	.
.	3072%95Gyy	.
.	3072%95Ayy	.
.	3072%95Gyy	.
.	3072%95Ayy	.
.	3072%95Gyy	.
.	3072%95Ayy	.
.	3072%95Gyy	.
.	3072%95Ayy	.
.	3072%95Gyy	.
.	3072%95Ayy	.
.	3072%95Gyy	.
.	3072%95Ayy	.
.	3072%95Gyy	.
.	3072%95Ayy	.
.	3072%95Gyy	.
.	3072%95Ayy	.
.	3072%95Gyy	.
.	3072%95Ayy	.
.	3072%95Gyy	.
.	3072%95Ayy	.
.	3072%95Gyy	.
.	3072%95Ayy	.
.	3072%95Gyy	.
.	3072%95Ayy	.
.	3072%95Gyy	.
.	3072%95Ayy	.
.	3072%95Gyy	.
.	3072%95Ayy	.
.	3072%95Gyy	.
.	[[256..Ayy	.
=916	=916	=916
.	1%0A/]]	.
[1G	3072%95Gyy	.
.	3072%95Ayy	.
.	3072%95Gyy	.
.	3072%95Ayy	.
.	3072%95Gyy	.
.	3072%95Ayy	.
.	3072%95Gyy	.
.	3072%95Ayy	.
.	3072%95Gyy	.
.	3072%95Ayy	.
.	3072%95Gyy	.
.	3072%95Ayy	.
.	3072%95Gyy	.
.	3072%95Ayy	.
.	3072%95Gyy	.
.	3072%95Ayy	.
.	3072%95Gyy	.
.	3072%95Ayy	.
.	3072%95Gyy	.
.	3072%95Ayy	.
.	3072%95Gyy	.
.	3072%95Ayy	.
.	3072%95Gyy	.
.	3072%95Ayy	.
.	3072%95Gyy	.
.	3072%95Ayy	.
.	3072%95Gyy	.
.	3072%95Ayy	.
.	3072%95Gyy	.
.	3072%95Ayy	.
.	3072%95Gyy	.
.	[[128...Ayy	.
=917	=917	=917
.	1%0A/]]	.
1G]	3072%95Gyy	.
.	3072%95Ayy	.
.	3072%95Gyy	.
.	3072%95Ayy	.
.	3072%95Gyy	.
.	3072%95Ayy	.
.	3072%95Gyy	.
.	3072%95Ayy	.
.	3072%95Gyy	.
.	3072%95Ayy	.
.	3072%95Gyy	.
.	3072%95Ayy	.
.	3072%95Gyy	.
.	3072%95Ayy	.
.	3072%95Gyy	.
.	3072%95Ayy	.
.	3072%95Gyy	.
.	3072%95Ayy	.
.	3072%95Gyy	.
.	3072%95Ayy	.
.	3072%95Gyy	.
.	3072%95Ayy	.
.	3072%95Gyy	.
.	3072%95Ayy	.
.	3072%95Gyy	.
.	3072%95Ayy	.
.	3072%95Gyy	.
.	3072%95Ayy	.
.	3072%95Gyy	.
.	3072%95Ayy	.
.	3072%95Gyy	.
.	256..ryy	.
.	64ryy	.
*v	*v	*
=918	=918
!!linebreak:original
4C	.
4r	f
[2g	.
=919	=919
2g]	.
[2c	.
=920	=920
2c]	.
[2G	.
=921	=921
2G]	.
[2C	.
=922	=922
2C]	.
[2A	.
=923	=923
2A]	sf
[2c	sf
=924	=924
2c]	.
[2c	.
=925	=925
2c]	sf
2B	.
=926	=926
8gL	.
8g	p
8a	.
8gJ	.
8fL	.
8f	.
8g	.
8fJ	.
=927	=927
!!linebreak:original
8eL	.
8e	.
8f	.
8eJ	.
8dL	.
8d	.
8e	.
8dJ	.
=928	=928
8cL	.
8c	.
8d	.
8cJ	.
8BL	.
8B	.
8c	.
8BJ	.
=929	=929
8AL	.
8A	.
8B	.
8AJ	.
8G#XL	.
8G#	.
8A	.
8G#J	.
=930	=930
8AL	.
8A	.
8B	.
8AJ	.
8G#XL	sfp
8G#	.
8A	.
8G#J	.
=931	=931
8AL	.
8A	.
8B	.
8AJ	.
8DL	sfp
8D	.
8E	.
8DJ	.
=932	=932
8GnL	.
8G	.
8A	.
8GJ	.
8CL	sfp
8C	.
8D	.
8CJ	.
=933	=933
!!linebreak:original
8DL	.
8D	.
8E	.
8DJ	.
8FL	.
8F	.
8F	.
8FJ	.
=934	=934
4E	.
4r	.
2r	.
=935	=935
2r	.
(2d	.
=936	=936
4G)	.
4r	.
2r	.
=937	=937
2r	.
(2d	.
=938	=938
4G)	.
4r	.
2r	.
=939	=939
2r	.
[2a	.
=940	=940
4a]	.
4r	.
2r	.
=941	=941
2r	.
[2g	.
=942	=942
4g]	.
4r	.
[2e	.
=943	=943
!!linebreak:original
2e]	sfp
[2A	.
=944	=944
4A]	.
4r	.
[2d	.
=945	=945
2d]	sfp
[2G	.
=946	=946
4G]	.
4r	.
2r	.
=947	=947
1r	.
=948	=948
!LO:TX:b:i:t=cresc.	!
[1G [1f	.
=949	=949
1G] 1f]	.
=950	=950
4G 4e	.
4r	.
2r	.
=951	=951
1r	.
=952	=952
[1D	.
=953	=953
1D]	.
=954	=954
!!linebreak:original
4C	ff
4r	.
8cL	.
8c	.
8d	.
8cJ	.
=955	=955
8BL	.
8B	.
8c	.
8BJ	.
8AL	.
8A	.
8B	.
8AJ	.
=956	=956
8GL	.
8G	.
8A	.
8GJ	.
8FL	.
8F	.
8G	.
8FJ	.
=957	=957
8EL	.
8E	.
8F	.
8EJ	.
8DL	.
8D	.
8E	.
8DJ	.
=958	=958
4C	.
4r	.
2r	.
=959	=959
4B-X	ff
4r	.
2r	.
=960	=960
2.A;	.
(8AL	ff
8GJ	.
=961	=961
8FL	.
8EJ	.
4D')	.
2r;	.
=962	=962
!!linebreak:original
1r	.
=963	=963
1r	.
=964	=964
1r	.
=965	=965
1r	.
=966	=966
1r	.
=967	=967
2r	.
(4B	.
[4g)	p
=968	=968
4g]	.
4r	.
8gL	.
8g	.
8a	.
8gJ	.
=969	=969
4f	.
4r	.
8dL	.
8d	.
8c	.
8dJ	.
=970	=970
4e	.
4r	.
8gL	.
8g	.
8a	.
8gJ	.
=971	=971
4f	.
4r	.
8dL	.
8d	.
8c	.
8dJ	.
=972	=972
4G	.
4r	.
8dL	.
8d	.
8e	.
8dJ	.
=973	=973
4c#X	.
4r	.
[2a	.
=974	=974
4a]	.
4r	.
8cnL	.
8c	.
8d	.
8cJ	.
=975	=975
!!linebreak:original
4B	.
4r	.
!LO:TX:b:i:t=cresc.	!
[2g	.
=976	=976
4g]	.
4r	.
8dL	.
8d	.
8e	.
8dJ	.
=977	=977
4c#X	.
4r	.
8aL	.
8a	.
8a	.
8aJ	.
=978	=978
4a	.
4r	.
8cnL	.
8c	.
8d	.
8cJ	.
=979	=979
4B	.
4r	.
8gL	.
8g	.
8g	.
8gJ	.
=980	=980
8eL	.
8e	.
8f	.
8eJ	.
8dL	.
8d	.
8e	.
8dJ	.
=981	=981
8c#XL	.
8c#	.
8d	.
8c#J	.
8eL	.
8e	.
8f	.
8eJ	.
=982	=982
8fL	.
8f	.
8g	.
8fJ	.
8cnL	.
8c	.
8d	.
8cJ	.
=983	=983
!!linebreak:original
8BL	.
8B	.
8c	.
8BJ	.
8fL	.
8f	.
8e	.
8fJ	.
=984	=984
8eL	f
8c	.
8c	.
8cJ	.
8cL	.
8c	.
8c	.
8cJ	.
=985	=985
8cL	.
8c	.
8c	.
8cJ	.
8cL	.
8c	.
8c	.
8cJ	.
=986	=986
8dL	.
8d	.
8d	.
8dJ	.
8dL	.
8d	.
8d	.
8dJ	.
=987	=987
8dL	.
8d	.
8d	.
8dJ	.
8dL	.
8d	.
8d	.
8dJ	.
=988	=988
!LO:TX:b:i:t=piu	!
8cL	.
8C	.
8C	f
8CJ	.
8CL	.
8C	.
8C	.
8CJ	.
=989	=989
!!linebreak:original
8CL	.
8C	.
8C	.
8CJ	.
8CL	.
8C	.
8C	.
8CJ	.
=990	=990
8DL	.
8D	.
8D	.
8DJ	.
8DL	.
8D	.
8D	.
8DJ	.
=991	=991
8DL	.
8D	.
8D	.
8DJ	.
8DL	.
8D	.
8D	.
8DJ	.
=992	=992
8CL	.
8e	.
8d	.
8eJ	.
8eL	.
8e	.
8d	.
8eJ	.
=993	=993
8fL	.
8f	.
8e	.
8fJ	.
8gL	.
8g	.
8f	.
8gJ	.
=994	=994
8aL	.
8a	.
8g	.
8aJ	.
8bL	.
8b	.
8a	.
8bJ	.
=995	=995
8ccL	.
8cc	.
8b	.
8ccJ	.
8ddL	.
8dd	.
8cc	.
8ddJ	.
=996	=996
!!linebreak:original
4ee	ff
8gL	.
8gJ	.
8eL	.
8eJ	.
8gL	.
8gJ	.
=997	=997
8cL	.
8cJ	.
8eL	.
8eJ	.
8GL	.
8GJ	.
8cL	.
8cJ	.
=998	=998
8EL	.
8EJ	.
8GL	.
8GJ	.
8CL	.
8CJ	.
8EL	.
8EJ	.
=999	=999
8GL	.
8GJ	.
8cL	.
8cJ	.
8EL	.
8EJ	.
8eL	.
8eJ	.
=1000	=1000
4f	.
4r	.
2r	.
=1001	=1001
4G 4f	.
4r	.
2r	.
=1002	=1002
4C 4G 4e	.
4r	.
2r	.
==	==
*-	*-
!!!RDF**kern: > = above
!!!RDF**kern: < = below
